Astral/Runtime/Renderer/Assets/LUTs/ACEScg_to_sRGB_RRT_ODT.cube
LUT_1D_SIZE 8192
LUT_1D_INPUT_RANGE -0.006917 222.860901
LUT_3D_SIZE 65
0.000000 0.000000 0.000000
0.233850 0.233850 0.233850
0.303887 0.303887 0.303887
0.341178 0.341178 0.341178
0.366752 0.366752 0.366752
0.386237 0.386237 0.386237
0.401982 0.401982 0.401982
0.415195 0.415195 0.415195
0.426577 0.426577 0.426577
0.436576 0.436576 0.436576
0.445491 0.445491 0.445491
0.453534 0.453534 0.453534
0.460861 0.460861 0.460861
0.467590 0.467590 0.467590
0.473809 0.473809 0.473809
0.479592 0.479592 0.479592
0.484995 0.484995 0.484995
0.490065 0.490065 0.490065
0.494842 0.494842 0.494842
0.499356 0.499356 0.499356
0.503636 0.503636 0.503636
0.507704 0.507704 0.507704
0.511580 0.511580 0.511580
0.515282 0.515282 0.515282
0.518825 0.518825 0.518825
0.522222 0.522222 0.522222
0.525484 0.525484 0.525484
0.528622 0.528622 0.528622
0.531645 0.531645 0.531645
0.534561 0.534561 0.534561
0.537376 0.537376 0.537376
0.540099 0.540099 0.540099
0.542735 0.542735 0.542735
0.545289 0.545289 0.545289
0.547766 0.547766 0.547766
0.550170 0.550170 0.550170
0.552507 0.552507 0.552507
0.554779 0.554779 0.554779
0.556990 0.556990 0.556990
0.559143 0.559143 0.559143
0.561242 0.561242 0.561242
0.563288 0.563288 0.563288
0.565284 0.565284 0.565284
0.567234 0.567234 0.567234
0.569138 0.569138 0.569138
0.570999 0.570999 0.570999
0.572819 0.572819 0.572819
0.574600 0.574600 0.574600
0.576343 0.576343 0.576343
0.578049 0.578049 0.578049
0.579722 0.579722 0.579722
0.581361 0.581361 0.581361
0.582968 0.582968 0.582968
0.584544 0.584544 0.584544
0.586090 0.586090 0.586090
0.587608 0.587608 0.587608
0.589099 0.589099 0.589099
0.590563 0.590563 0.590563
0.592001 0.592001 0.592001
0.593415 0.593415 0.593415
0.594805 0.594805 0.594805
0.596172 0.596172 0.596172
0.597517 0.597517 0.597517
0.598839 0.598839 0.598839
0.600142 0.600142 0.600142
0.601423 0.601423 0.601423
0.602685 0.602685 0.602685
0.603928 0.603928 0.603928
0.605153 0.605153 0.605153
0.606360 0.606360 0.606360
0.607549 0.607549 0.607549
0.608721 0.608721 0.608721
0.609877 0.609877 0.609877
0.611017 0.611017 0.611017
0.612141 0.612141 0.612141
0.613250 0.613250 0.613250
0.614344 0.614344 0.614344
0.615424 0.615424 0.615424
0.616490 0.616490 0.616490
0.617543 0.617543 0.617543
0.618582 0.618582 0.618582
0.619608 0.619608 0.619608
0.620622 0.620622 0.620622
0.621623 0.621623 0.621623
0.622612 0.622612 0.622612
0.623590 0.623590 0.623590
0.624556 0.624556 0.624556
0.625510 0.625510 0.625510
0.626454 0.626454 0.626454
0.627387 0.627387 0.627387
0.628310 0.628310 0.628310
0.629223 0.629223 0.629223
0.630125 0.630125 0.630125
0.631018 0.631018 0.631018
0.631901 0.631901 0.631901
0.632775 0.632775 0.632775
0.633639 0.633639 0.633639
0.634495 0.634495 0.634495
0.635342 0.635342 0.635342
0.636180 0.636180 0.636180
0.637009 0.637009 0.637009
0.637831 0.637831 0.637831
0.638644 0.638644 0.638644
0.639450 0.639450 0.639450
0.640247 0.640247 0.640247
0.641037 0.641037 0.641037
0.641819 0.641819 0.641819
0.642595 0.642595 0.642595
0.643362 0.643362 0.643362
0.644123 0.644123 0.644123
0.644877 0.644877 0.644877
0.645624 0.645624 0.645624
0.646364 0.646364 0.646364
0.647098 0.647098 0.647098
0.647825 0.647825 0.647825
0.648546 0.648546 0.648546
0.649260 0.649260 0.649260
0.649968 0.649968 0.649968
0.650671 0.650671 0.650671
0.651367 0.651367 0.651367
0.652058 0.652058 0.652058
0.652743 0.652743 0.652743
0.653422 0.653422 0.653422
0.654095 0.654095 0.654095
0.654764 0.654764 0.654764
0.655426 0.655426 0.655426
0.656084 0.656084 0.656084
0.656736 0.656736 0.656736
0.657383 0.657383 0.657383
0.658025 0.658025 0.658025
0.658662 0.658662 0.658662
0.659295 0.659295 0.659295
0.659922 0.659922 0.659922
0.660545 0.660545 0.660545
0.661163 0.661163 0.661163
0.661776 0.661776 0.661776
0.662385 0.662385 0.662385
0.662989 0.662989 0.662989
0.663589 0.663589 0.663589
0.664185 0.664185 0.664185
0.664776 0.664776 0.664776
0.665364 0.665364 0.665364
0.665947 0.665947 0.665947
0.666525 0.666525 0.666525
0.667100 0.667100 0.667100
0.667671 0.667671 0.667671
0.668238 0.668238 0.668238
0.668801 0.668801 0.668801
0.669360 0.669360 0.669360
0.669916 0.669916 0.669916
0.670468 0.670468 0.670468
0.671016 0.671016 0.671016
0.671560 0.671560 0.671560
0.672101 0.672101 0.672101
0.672638 0.672638 0.672638
0.673172 0.673172 0.673172
0.673703 0.673703 0.673703
0.674230 0.674230 0.674230
0.674753 0.674753 0.674753
0.675274 0.675274 0.675274
0.675791 0.675791 0.675791
0.676305 0.676305 0.676305
0.676815 0.676815 0.676815
0.677323 0.677323 0.677323
0.677827 0.677827 0.677827
0.678329 0.678329 0.678329
0.678827 0.678827 0.678827
0.679322 0.679322 0.679322
0.679815 0.679815 0.679815
0.680304 0.680304 0.680304
0.680791 0.680791 0.680791
0.681274 0.681274 0.681274
0.681755 0.681755 0.681755
0.682233 0.682233 0.682233
0.682709 0.682709 0.682709
0.683181 0.683181 0.683181
0.683651 0.683651 0.683651
0.684118 0.684118 0.684118
0.684583 0.684583 0.684583
0.685045 0.685045 0.685045
0.685504 0.685504 0.685504
0.685961 0.685961 0.685961
0.686415 0.686415 0.686415
0.686867 0.686867 0.686867
0.687317 0.687317 0.687317
0.687764 0.687764 0.687764
0.688208 0.688208 0.688208
0.688650 0.688650 0.688650
0.689090 0.689090 0.689090
0.689528 0.689528 0.689528
0.689963 0.689963 0.689963
0.690395 0.690395 0.690395
0.690826 0.690826 0.690826
0.691254 0.691254 0.691254
0.691680 0.691680 0.691680
0.692104 0.692104 0.692104
0.692526 0.692526 0.692526
0.692946 0.692946 0.692946
0.693363 0.693363 0.693363
0.693779 0.693779 0.693779
0.694192 0.694192 0.694192
0.694603 0.694603 0.694603
0.695012 0.695012 0.695012
0.695419 0.695419 0.695419
0.695825 0.695825 0.695825
0.696228 0.696228 0.696228
0.696629 0.696629 0.696629
0.697028 0.697028 0.697028
0.697426 0.697426 0.697426
0.697821 0.697821 0.697821
0.698215 0.698215 0.698215
0.698606 0.698606 0.698606
0.698996 0.698996 0.698996
0.699384 0.699384 0.699384
0.699770 0.699770 0.699770
0.700155 0.700155 0.700155
0.700537 0.700537 0.700537
0.700918 0.700918 0.700918
0.701297 0.701297 0.701297
0.701674 0.701674 0.701674
0.702050 0.702050 0.702050
0.702424 0.702424 0.702424
0.702796 0.702796 0.702796
0.703166 0.703166 0.703166
0.703535 0.703535 0.703535
0.703902 0.703902 0.703902
0.704268 0.704268 0.704268
0.704632 0.704632 0.704632
0.704994 0.704994 0.704994
0.705355 0.705355 0.705355
0.705714 0.705714 0.705714
0.706072 0.706072 0.706072
0.706428 0.706428 0.706428
0.706783 0.706783 0.706783
0.707136 0.707136 0.707136
0.707487 0.707487 0.707487
0.707837 0.707837 0.707837
0.708186 0.708186 0.708186
0.708533 0.708533 0.708533
0.708879 0.708879 0.708879
0.709223 0.709223 0.709223
0.709566 0.709566 0.709566
0.709907 0.709907 0.709907
0.710247 0.710247 0.710247
0.710585 0.710585 0.710585
0.710922 0.710922 0.710922
0.711258 0.711258 0.711258
0.711593 0.711593 0.711593
0.711926 0.711926 0.711926
0.712257 0.712257 0.712257
0.712588 0.712588 0.712588
0.712917 0.712917 0.712917
0.713245 0.713245 0.713245
0.713571 0.713571 0.713571
0.713896 0.713896 0.713896
0.714220 0.714220 0.714220
0.714543 0.714543 0.714543
0.714864 0.714864 0.714864
0.715184 0.715184 0.715184
0.715503 0.715503 0.715503
0.715821 0.715821 0.715821
0.716137 0.716137 0.716137
0.716452 0.716452 0.716452
0.716766 0.716766 0.716766
0.717079 0.717079 0.717079
0.717391 0.717391 0.717391
0.717701 0.717701 0.717701
0.718010 0.718010 0.718010
0.718319 0.718319 0.718319
0.718626 0.718626 0.718626
0.718931 0.718931 0.718931
0.719236 0.719236 0.719236
0.719540 0.719540 0.719540
0.719842 0.719842 0.719842
0.720143 0.720143 0.720143
0.720444 0.720444 0.720444
0.720743 0.720743 0.720743
0.721041 0.721041 0.721041
0.721338 0.721338 0.721338
0.721634 0.721634 0.721634
0.721929 0.721929 0.721929
0.722223 0.722223 0.722223
0.722515 0.722515 0.722515
0.722807 0.722807 0.722807
0.723098 0.723098 0.723098
0.723388 0.723388 0.723388
0.723676 0.723676 0.723676
0.723964 0.723964 0.723964
0.724251 0.724251 0.724251
0.724536 0.724536 0.724536
0.724821 0.724821 0.724821
0.725105 0.725105 0.725105
0.725388 0.725388 0.725388
0.725669 0.725669 0.725669
0.725950 0.725950 0.725950
0.726230 0.726230 0.726230
0.726509 0.726509 0.726509
0.726787 0.726787 0.726787
0.727064 0.727064 0.727064
0.727340 0.727340 0.727340
0.727615 0.727615 0.727615
0.727889 0.727889 0.727889
0.728163 0.728163 0.728163
0.728435 0.728435 0.728435
0.728707 0.728707 0.728707
0.728977 0.728977 0.728977
0.729247 0.729247 0.729247
0.729516 0.729516 0.729516
0.729784 0.729784 0.729784
0.730051 0.730051 0.730051
0.730317 0.730317 0.730317
0.730583 0.730583 0.730583
0.730847 0.730847 0.730847
0.731111 0.731111 0.731111
0.731374 0.731374 0.731374
0.731636 0.731636 0.731636
0.731897 0.731897 0.731897
0.732158 0.732158 0.732158
0.732417 0.732417 0.732417
0.732676 0.732676 0.732676
0.732934 0.732934 0.732934
0.733191 0.733191 0.733191
0.733447 0.733447 0.733447
0.733703 0.733703 0.733703
0.733958 0.733958 0.733958
0.734212 0.734212 0.734212
0.734465 0.734465 0.734465
0.734717 0.734717 0.734717
0.734969 0.734969 0.734969
0.735220 0.735220 0.735220
0.735470 0.735470 0.735470
0.735719 0.735719 0.735719
0.735968 0.735968 0.735968
0.736216 0.736216 0.736216
0.736463 0.736463 0.736463
0.736709 0.736709 0.736709
0.736955 0.736955 0.736955
0.737200 0.737200 0.737200
0.737444 0.737444 0.737444
0.737687 0.737687 0.737687
0.737930 0.737930 0.737930
0.738172 0.738172 0.738172
0.738413 0.738413 0.738413
0.738654 0.738654 0.738654
0.738894 0.738894 0.738894
0.739133 0.739133 0.739133
0.739372 0.739372 0.739372
0.739609 0.739609 0.739609
0.739846 0.739846 0.739846
0.740083 0.740083 0.740083
0.740319 0.740319 0.740319
0.740554 0.740554 0.740554
0.740788 0.740788 0.740788
0.741022 0.741022 0.741022
0.741255 0.741255 0.741255
0.741488 0.741488 0.741488
0.741719 0.741719 0.741719
0.741951 0.741951 0.741951
0.742181 0.742181 0.742181
0.742411 0.742411 0.742411
0.742640 0.742640 0.742640
0.742869 0.742869 0.742869
0.743097 0.743097 0.743097
0.743324 0.743324 0.743324
0.743551 0.743551 0.743551
0.743777 0.743777 0.743777
0.744002 0.744002 0.744002
0.744227 0.744227 0.744227
0.744451 0.744451 0.744451
0.744675 0.744675 0.744675
0.744898 0.744898 0.744898
0.745120 0.745120 0.745120
0.745342 0.745342 0.745342
0.745563 0.745563 0.745563
0.745784 0.745784 0.745784
0.746004 0.746004 0.746004
0.746223 0.746223 0.746223
0.746442 0.746442 0.746442
0.746661 0.746661 0.746661
0.746878 0.746878 0.746878
0.747095 0.747095 0.747095
0.747312 0.747312 0.747312
0.747528 0.747528 0.747528
0.747743 0.747743 0.747743
0.747958 0.747958 0.747958
0.748173 0.748173 0.748173
0.748386 0.748386 0.748386
0.748599 0.748599 0.748599
0.748812 0.748812 0.748812
0.749024 0.749024 0.749024
0.749236 0.749236 0.749236
0.749447 0.749447 0.749447
0.749657 0.749657 0.749657
0.749867 0.749867 0.749867
0.750077 0.750077 0.750077
0.750285 0.750285 0.750285
0.750494 0.750494 0.750494
0.750702 0.750702 0.750702
0.750909 0.750909 0.750909
0.751116 0.751116 0.751116
0.751322 0.751322 0.751322
0.751528 0.751528 0.751528
0.751733 0.751733 0.751733
0.751938 0.751938 0.751938
0.752142 0.752142 0.752142
0.752346 0.752346 0.752346
0.752549 0.752549 0.752549
0.752751 0.752751 0.752751
0.752954 0.752954 0.752954
0.753155 0.753155 0.753155
0.753357 0.753357 0.753357
0.753557 0.753557 0.753557
0.753757 0.753757 0.753757
0.753957 0.753957 0.753957
0.754156 0.754156 0.754156
0.754355 0.754355 0.754355
0.754554 0.754554 0.754554
0.754751 0.754751 0.754751
0.754949 0.754949 0.754949
0.755146 0.755146 0.755146
0.755342 0.755342 0.755342
0.755538 0.755538 0.755538
0.755733 0.755733 0.755733
0.755929 0.755929 0.755929
0.756123 0.756123 0.756123
0.756317 0.756317 0.756317
0.756511 0.756511 0.756511
0.756704 0.756704 0.756704
0.756897 0.756897 0.756897
0.757089 0.757089 0.757089
0.757281 0.757281 0.757281
0.757472 0.757472 0.757472
0.757663 0.757663 0.757663
0.757854 0.757854 0.757854
0.758044 0.758044 0.758044
0.758233 0.758233 0.758233
0.758423 0.758423 0.758423
0.758611 0.758611 0.758611
0.758800 0.758800 0.758800
0.758988 0.758988 0.758988
0.759175 0.759175 0.759175
0.759362 0.759362 0.759362
0.759549 0.759549 0.759549
0.759735 0.759735 0.759735
0.759921 0.759921 0.759921
0.760106 0.760106 0.760106
0.760291 0.760291 0.760291
0.760476 0.760476 0.760476
0.760660 0.760660 0.760660
0.760843 0.760843 0.760843
0.761027 0.761027 0.761027
0.761210 0.761210 0.761210
0.761392 0.761392 0.761392
0.761574 0.761574 0.761574
0.761756 0.761756 0.761756
0.761937 0.761937 0.761937
0.762118 0.762118 0.762118
0.762298 0.762298 0.762298
0.762479 0.762479 0.762479
0.762658 0.762658 0.762658
0.762838 0.762838 0.762838
0.763016 0.763016 0.763016
0.763195 0.763195 0.763195
0.763373 0.763373 0.763373
0.763551 0.763551 0.763551
0.763728 0.763728 0.763728
0.763905 0.763905 0.763905
0.764082 0.764082 0.764082
0.764258 0.764258 0.764258
0.764434 0.764434 0.764434
0.764609 0.764609 0.764609
0.764785 0.764785 0.764785
0.764959 0.764959 0.764959
0.765134 0.765134 0.765134
0.765308 0.765308 0.765308
0.765481 0.765481 0.765481
0.765655 0.765655 0.765655
0.765827 0.765827 0.765827
0.766000 0.766000 0.766000
0.766172 0.766172 0.766172
0.766344 0.766344 0.766344
0.766515 0.766515 0.766515
0.766687 0.766687 0.766687
0.766857 0.766857 0.766857
0.767028 0.767028 0.767028
0.767198 0.767198 0.767198
0.767367 0.767367 0.767367
0.767537 0.767537 0.767537
0.767706 0.767706 0.767706
0.767874 0.767874 0.767874
0.768043 0.768043 0.768043
0.768211 0.768211 0.768211
0.768378 0.768378 0.768378
0.768546 0.768546 0.768546
0.768713 0.768713 0.768713
0.768879 0.768879 0.768879
0.769046 0.769046 0.769046
0.769211 0.769211 0.769211
0.769377 0.769377 0.769377
0.769542 0.769542 0.769542
0.769707 0.769707 0.769707
0.769872 0.769872 0.769872
0.770036 0.770036 0.770036
0.770200 0.770200 0.770200
0.770364 0.770364 0.770364
0.770527 0.770527 0.770527
0.770690 0.770690 0.770690
0.770853 0.770853 0.770853
0.771015 0.771015 0.771015
0.771177 0.771177 0.771177
0.771339 0.771339 0.771339
0.771500 0.771500 0.771500
0.771661 0.771661 0.771661
0.771822 0.771822 0.771822
0.771982 0.771982 0.771982
0.772143 0.772143 0.772143
0.772302 0.772302 0.772302
0.772462 0.772462 0.772462
0.772621 0.772621 0.772621
0.772780 0.772780 0.772780
0.772939 0.772939 0.772939
0.773097 0.773097 0.773097
0.773255 0.773255 0.773255
0.773412 0.773412 0.773412
0.773570 0.773570 0.773570
0.773727 0.773727 0.773727
0.773884 0.773884 0.773884
0.774040 0.774040 0.774040
0.774196 0.774196 0.774196
0.774352 0.774352 0.774352
0.774508 0.774508 0.774508
0.774663 0.774663 0.774663
0.774818 0.774818 0.774818
0.774973 0.774973 0.774973
0.775127 0.775127 0.775127
0.775281 0.775281 0.775281
0.775435 0.775435 0.775435
0.775589 0.775589 0.775589
0.775742 0.775742 0.775742
0.775895 0.775895 0.775895
0.776048 0.776048 0.776048
0.776200 0.776200 0.776200
0.776352 0.776352 0.776352
0.776504 0.776504 0.776504
0.776656 0.776656 0.776656
0.776807 0.776807 0.776807
0.776958 0.776958 0.776958
0.777109 0.777109 0.777109
0.777259 0.777259 0.777259
0.777410 0.777410 0.777410
0.777559 0.777559 0.777559
0.777709 0.777709 0.777709
0.777858 0.777858 0.777858
0.778008 0.778008 0.778008
0.778156 0.778156 0.778156
0.778305 0.778305 0.778305
0.778453 0.778453 0.778453
0.778601 0.778601 0.778601
0.778749 0.778749 0.778749
0.778897 0.778897 0.778897
0.779044 0.779044 0.779044
0.779191 0.779191 0.779191
0.779338 0.779338 0.779338
0.779484 0.779484 0.779484
0.779630 0.779630 0.779630
0.779776 0.779776 0.779776
0.779922 0.779922 0.779922
0.780067 0.780067 0.780067
0.780212 0.780212 0.780212
0.780357 0.780357 0.780357
0.780502 0.780502 0.780502
0.780646 0.780646 0.780646
0.780791 0.780791 0.780791
0.780935 0.780935 0.780935
0.781078 0.781078 0.781078
0.781222 0.781222 0.781222
0.781365 0.781365 0.781365
0.781508 0.781508 0.781508
0.781650 0.781650 0.781650
0.781793 0.781793 0.781793
0.781935 0.781935 0.781935
0.782077 0.782077 0.782077
0.782218 0.782218 0.782218
0.782360 0.782360 0.782360
0.782501 0.782501 0.782501
0.782642 0.782642 0.782642
0.782783 0.782783 0.782783
0.782923 0.782923 0.782923
0.783063 0.783063 0.783063
0.783203 0.783203 0.783203
0.783343 0.783343 0.783343
0.783483 0.783483 0.783483
0.783622 0.783622 0.783622
0.783761 0.783761 0.783761
0.783900 0.783900 0.783900
0.784038 0.784038 0.784038
0.784177 0.784177 0.784177
0.784315 0.784315 0.784315
0.784453 0.784453 0.784453
0.784590 0.784590 0.784590
0.784728 0.784728 0.784728
0.784865 0.784865 0.784865
0.785002 0.785002 0.785002
0.785138 0.785138 0.785138
0.785275 0.785275 0.785275
0.785411 0.785411 0.785411
0.785547 0.785547 0.785547
0.785683 0.785683 0.785683
0.785819 0.785819 0.785819
0.785954 0.785954 0.785954
0.786089 0.786089 0.786089
0.786224 0.786224 0.786224
0.786359 0.786359 0.786359
0.786493 0.786493 0.786493
0.786628 0.786628 0.786628
0.786762 0.786762 0.786762
0.786896 0.786896 0.786896
0.787029 0.787029 0.787029
0.787163 0.787163 0.787163
0.787296 0.787296 0.787296
0.787429 0.787429 0.787429
0.787562 0.787562 0.787562
0.787694 0.787694 0.787694
0.787827 0.787827 0.787827
0.787959 0.787959 0.787959
0.788091 0.788091 0.788091
0.788222 0.788222 0.788222
0.788354 0.788354 0.788354
0.788485 0.788485 0.788485
0.788616 0.788616 0.788616
0.788747 0.788747 0.788747
0.788878 0.788878 0.788878
0.789008 0.789008 0.789008
0.789138 0.789138 0.789138
0.789268 0.789268 0.789268
0.789398 0.789398 0.789398
0.789528 0.789528 0.789528
0.789657 0.789657 0.789657
0.789786 0.789786 0.789786
0.789915 0.789915 0.789915
0.790044 0.790044 0.790044
0.790173 0.790173 0.790173
0.790301 0.790301 0.790301
0.790430 0.790430 0.790430
0.790558 0.790558 0.790558
0.790685 0.790685 0.790685
0.790813 0.790813 0.790813
0.790940 0.790940 0.790940
0.791068 0.791068 0.791068
0.791195 0.791195 0.791195
0.791321 0.791321 0.791321
0.791448 0.791448 0.791448
0.791575 0.791575 0.791575
0.791701 0.791701 0.791701
0.791827 0.791827 0.791827
0.791953 0.791953 0.791953
0.792078 0.792078 0.792078
0.792204 0.792204 0.792204
0.792329 0.792329 0.792329
0.792454 0.792454 0.792454
0.792579 0.792579 0.792579
0.792704 0.792704 0.792704
0.792828 0.792828 0.792828
0.792953 0.792953 0.792953
0.793077 0.793077 0.793077
0.793201 0.793201 0.793201
0.793325 0.793325 0.793325
0.793448 0.793448 0.793448
0.793572 0.793572 0.793572
0.793695 0.793695 0.793695
0.793818 0.793818 0.793818
0.793941 0.793941 0.793941
0.794064 0.794064 0.794064
0.794186 0.794186 0.794186
0.794308 0.794308 0.794308
0.794430 0.794430 0.794430
0.794552 0.794552 0.794552
0.794674 0.794674 0.794674
0.794796 0.794796 0.794796
0.794917 0.794917 0.794917
0.795038 0.795038 0.795038
0.795159 0.795159 0.795159
0.795280 0.795280 0.795280
0.795401 0.795401 0.795401
0.795522 0.795522 0.795522
0.795642 0.795642 0.795642
0.795762 0.795762 0.795762
0.795882 0.795882 0.795882
0.796002 0.796002 0.796002
0.796121 0.796121 0.796121
0.796241 0.796241 0.796241
0.796360 0.796360 0.796360
0.796479 0.796479 0.796479
0.796598 0.796598 0.796598
0.796717 0.796717 0.796717
0.796836 0.796836 0.796836
0.796954 0.796954 0.796954
0.797072 0.797072 0.797072
0.797191 0.797191 0.797191
0.797309 0.797309 0.797309
0.797426 0.797426 0.797426
0.797544 0.797544 0.797544
0.797661 0.797661 0.797661
0.797779 0.797779 0.797779
0.797896 0.797896 0.797896
0.798013 0.798013 0.798013
0.798129 0.798129 0.798129
0.798246 0.798246 0.798246
0.798362 0.798362 0.798362
0.798479 0.798479 0.798479
0.798595 0.798595 0.798595
0.798711 0.798711 0.798711
0.798826 0.798826 0.798826
0.798942 0.798942 0.798942
0.799057 0.799057 0.799057
0.799173 0.799173 0.799173
0.799288 0.799288 0.799288
0.799403 0.799403 0.799403
0.799518 0.799518 0.799518
0.799632 0.799632 0.799632
0.799747 0.799747 0.799747
0.799861 0.799861 0.799861
0.799975 0.799975 0.799975
0.800089 0.800089 0.800089
0.800203 0.800203 0.800203
0.800317 0.800317 0.800317
0.800430 0.800430 0.800430
0.800544 0.800544 0.800544
0.800657 0.800657 0.800657
0.800770 0.800770 0.800770
0.800883 0.800883 0.800883
0.800996 0.800996 0.800996
0.801108 0.801108 0.801108
0.801221 0.801221 0.801221
0.801333 0.801333 0.801333
0.801445 0.801445 0.801445
0.801557 0.801557 0.801557
0.801669 0.801669 0.801669
0.801781 0.801781 0.801781
0.801892 0.801892 0.801892
0.802004 0.802004 0.802004
0.802115 0.802115 0.802115
0.802226 0.802226 0.802226
0.802337 0.802337 0.802337
0.802448 0.802448 0.802448
0.802558 0.802558 0.802558
0.802669 0.802669 0.802669
0.802779 0.802779 0.802779
0.802890 0.802890 0.802890
0.803000 0.803000 0.803000
0.803110 0.803110 0.803110
0.803219 0.803219 0.803219
0.803329 0.803329 0.803329
0.803438 0.803438 0.803438
0.803548 0.803548 0.803548
0.803657 0.803657 0.803657
0.803766 0.803766 0.803766
0.803875 0.803875 0.803875
0.803984 0.803984 0.803984
0.804092 0.804092 0.804092
0.804201 0.804201 0.804201
0.804309 0.804309 0.804309
0.804417 0.804417 0.804417
0.804525 0.804525 0.804525
0.804633 0.804633 0.804633
0.804741 0.804741 0.804741
0.804848 0.804848 0.804848
0.804956 0.804956 0.804956
0.805063 0.805063 0.805063
0.805170 0.805170 0.805170
0.805277 0.805277 0.805277
0.805384 0.805384 0.805384
0.805491 0.805491 0.805491
0.805598 0.805598 0.805598
0.805704 0.805704 0.805704
0.805811 0.805811 0.805811
0.805917 0.805917 0.805917
0.806023 0.806023 0.806023
0.806129 0.806129 0.806129
0.806235 0.806235 0.806235
0.806340 0.806340 0.806340
0.806446 0.806446 0.806446
0.806551 0.806551 0.806551
0.806656 0.806656 0.806656
0.806762 0.806762 0.806762
0.806867 0.806867 0.806867
0.806971 0.806971 0.806971
0.807076 0.807076 0.807076
0.807181 0.807181 0.807181
0.807285 0.807285 0.807285
0.807390 0.807390 0.807390
0.807494 0.807494 0.807494
0.807598 0.807598 0.807598
0.807702 0.807702 0.807702
0.807806 0.807806 0.807806
0.807909 0.807909 0.807909
0.808013 0.808013 0.808013
0.808116 0.808116 0.808116
0.808220 0.808220 0.808220
0.808323 0.808323 0.808323
0.808426 0.808426 0.808426
0.808529 0.808529 0.808529
0.808631 0.808631 0.808631
0.808734 0.808734 0.808734
0.808837 0.808837 0.808837
0.808939 0.808939 0.808939
0.809041 0.809041 0.809041
0.809143 0.809143 0.809143
0.809245 0.809245 0.809245
0.809347 0.809347 0.809347
0.809449 0.809449 0.809449
0.809551 0.809551 0.809551
0.809652 0.809652 0.809652
0.809753 0.809753 0.809753
0.809855 0.809855 0.809855
0.809956 0.809956 0.809956
0.810057 0.810057 0.810057
0.810158 0.810158 0.810158
0.810259 0.810259 0.810259
0.810359 0.810359 0.810359
0.810460 0.810460 0.810460
0.810560 0.810560 0.810560
0.810660 0.810660 0.810660
0.810760 0.810760 0.810760
0.810861 0.810861 0.810861
0.810960 0.810960 0.810960
0.811060 0.811060 0.811060
0.811160 0.811160 0.811160
0.811259 0.811259 0.811259
0.811359 0.811359 0.811359
0.811458 0.811458 0.811458
0.811557 0.811557 0.811557
0.811656 0.811656 0.811656
0.811755 0.811755 0.811755
0.811854 0.811854 0.811854
0.811953 0.811953 0.811953
0.812051 0.812051 0.812051
0.812150 0.812150 0.812150
0.812248 0.812248 0.812248
0.812347 0.812347 0.812347
0.812445 0.812445 0.812445
0.812543 0.812543 0.812543
0.812640 0.812640 0.812640
0.812738 0.812738 0.812738
0.812836 0.812836 0.812836
0.812933 0.812933 0.812933
0.813031 0.813031 0.813031
0.813128 0.813128 0.813128
0.813225 0.813225 0.813225
0.813322 0.813322 0.813322
0.813419 0.813419 0.813419
0.813516 0.813516 0.813516
0.813613 0.813613 0.813613
0.813710 0.813710 0.813710
0.813806 0.813806 0.813806
0.813903 0.813903 0.813903
0.813999 0.813999 0.813999
0.814095 0.814095 0.814095
0.814191 0.814191 0.814191
0.814287 0.814287 0.814287
0.814383 0.814383 0.814383
0.814479 0.814479 0.814479
0.814574 0.814574 0.814574
0.814670 0.814670 0.814670
0.814765 0.814765 0.814765
0.814860 0.814860 0.814860
0.814956 0.814956 0.814956
0.815051 0.815051 0.815051
0.815146 0.815146 0.815146
0.815240 0.815240 0.815240
0.815335 0.815335 0.815335
0.815430 0.815430 0.815430
0.815524 0.815524 0.815524
0.815619 0.815619 0.815619
0.815713 0.815713 0.815713
0.815807 0.815807 0.815807
0.815901 0.815901 0.815901
0.815995 0.815995 0.815995
0.816089 0.816089 0.816089
0.816183 0.816183 0.816183
0.816276 0.816276 0.816276
0.816370 0.816370 0.816370
0.816463 0.816463 0.816463
0.816557 0.816557 0.816557
0.816650 0.816650 0.816650
0.816743 0.816743 0.816743
