Astral-Runtime/Renderer/Assets/LUTs/acescg_to_rec709_linear_no_shaper.cube
LUT_3D_SIZE 33
0.000000 0.000000 0.000000
0.053283 -0.004071 -0.000750
0.106566 -0.008141 -0.001500
0.159849 -0.012212 -0.002250
0.213131 -0.016282 -0.003000
0.266414 -0.020353 -0.003751
0.319697 -0.024423 -0.004501
0.372980 -0.028494 -0.005251
0.426263 -0.032564 -0.006001
0.479546 -0.036635 -0.006751
0.532828 -0.040705 -0.007501
0.586111 -0.044776 -0.008251
0.639394 -0.048846 -0.009001
0.692677 -0.052917 -0.009751
0.745960 -0.056987 -0.010501
0.799243 -0.061058 -0.011252
0.852525 -0.065128 -0.012002
0.905808 -0.069199 -0.012752
0.959091 -0.073269 -0.013502
1.012374 -0.077340 -0.014252
1.065657 -0.081410 -0.015002
1.118940 -0.085481 -0.015752
1.172222 -0.089551 -0.016502
1.225505 -0.093622 -0.017252
1.278788 -0.097692 -0.018003
1.332071 -0.101763 -0.018753
1.385354 -0.105833 -0.019503
1.438637 -0.109904 -0.020253
1.491920 -0.113974 -0.021003
1.545202 -0.118045 -0.021753
1.598485 -0.122115 -0.022503
1.651768 -0.126186 -0.023253
1.705051 -0.130256 -0.024003
-0.019431 0.035650 -0.004030
0.033852 0.031580 -0.004780
0.087135 0.027509 -0.005530
0.140418 0.023439 -0.006281
0.193700 0.019368 -0.007031
0.246983 0.015298 -0.007781
0.300266 0.011227 -0.008531
0.353549 0.007157 -0.009281
0.406832 0.003086 -0.010031
0.460115 -0.000984 -0.010781
0.513397 -0.005055 -0.011531
0.566680 -0.009125 -0.012281
0.619963 -0.013196 -0.013032
0.673246 -0.017267 -0.013782
0.726529 -0.021337 -0.014532
0.779812 -0.025408 -0.015282
0.833094 -0.029478 -0.016032
0.886377 -0.033549 -0.016782
0.939660 -0.037619 -0.017532
0.992943 -0.041690 -0.018282
1.046226 -0.045760 -0.019032
1.099509 -0.049831 -0.019782
1.152792 -0.053901 -0.020533
1.206074 -0.057972 -0.021283
1.259357 -0.062042 -0.022033
1.312640 -0.066113 -0.022783
1.365923 -0.070183 -0.023533
1.419206 -0.074254 -0.024283
1.472489 -0.078324 -0.025033
1.525771 -0.082395 -0.025783
1.579054 -0.086465 -0.026533
1.632337 -0.090536 -0.027284
1.685620 -0.094606 -0.028034
-0.038862 0.071300 -0.008061
0.014421 0.067230 -0.008811
0.067704 0.063159 -0.009561
0.120987 0.059089 -0.010311
0.174269 0.055018 -0.011061
0.227552 0.050948 -0.011811
0.280835 0.046877 -0.012561
0.334118 0.042807 -0.013311
0.387401 0.038736 -0.014061
0.440684 0.034666 -0.014812
0.493966 0.030595 -0.015562
0.547249 0.026525 -0.016312
0.600532 0.022454 -0.017062
0.653815 0.018384 -0.017812
0.707098 0.014313 -0.018562
0.760381 0.010243 -0.019312
0.813663 0.006172 -0.020062
0.866946 0.002102 -0.020812
0.920229 -0.001969 -0.021562
0.973512 -0.006039 -0.022313
1.026795 -0.010110 -0.023063
1.080078 -0.014180 -0.023813
1.133361 -0.018251 -0.024563
1.186643 -0.022321 -0.025313
1.239926 -0.026392 -0.026063
1.293209 -0.030463 -0.026813
1.346492 -0.034533 -0.027563
1.399775 -0.038604 -0.028313
1.453058 -0.042674 -0.029063
1.506340 -0.046745 -0.029814
1.559623 -0.050815 -0.030564
1.612906 -0.054886 -0.031314
1.666189 -0.058956 -0.032064
-0.058293 0.106950 -0.012091
-0.005010 0.102880 -0.012841
0.048273 0.098809 -0.013591
0.101556 0.094739 -0.014341
0.154838 0.090668 -0.015091
0.208121 0.086598 -0.015841
0.261404 0.082527 -0.016591
0.314687 0.078457 -0.017342
0.367970 0.074386 -0.018092
0.421253 0.070316 -0.018842
0.474535 0.066245 -0.019592
0.527818 0.062175 -0.020342
0.581101 0.058104 -0.021092
0.634384 0.054034 -0.021842
0.687667 0.049963 -0.022592
0.740950 0.045893 -0.023342
0.794232 0.041822 -0.024093
0.847515 0.037752 -0.024843
0.900798 0.033681 -0.025593
0.954081 0.029611 -0.026343
1.007364 0.025540 -0.027093
1.060647 0.021470 -0.027843
1.113930 0.017399 -0.028593
1.167212 0.013329 -0.029343
1.220495 0.009258 -0.030093
1.273778 0.005188 -0.030843
1.327061 0.001117 -0.031594
1.380344 -0.002953 -0.032344
1.433627 -0.007024 -0.033094
1.486909 -0.011094 -0.033844
1.540192 -0.015165 -0.034594
1.593475 -0.019235 -0.035344
1.646758 -0.023306 -0.036094
-0.077724 0.142601 -0.016121
-0.024441 0.138530 -0.016871
0.028842 0.134460 -0.017621
0.082125 0.130389 -0.018371
0.135407 0.126319 -0.019122
0.188690 0.122248 -0.019872
0.241973 0.118178 -0.020622
0.295256 0.114107 -0.021372
0.348539 0.110036 -0.022122
0.401822 0.105966 -0.022872
0.455104 0.101895 -0.023622
0.508387 0.097825 -0.024372
0.561670 0.093754 -0.025122
0.614953 0.089684 -0.025872
0.668236 0.085613 -0.026623
0.721519 0.081543 -0.027373
0.774801 0.077472 -0.028123
0.828084 0.073402 -0.028873
0.881367 0.069331 -0.029623
0.934650 0.065261 -0.030373
0.987933 0.061190 -0.031123
1.041216 0.057120 -0.031873
1.094499 0.053049 -0.032623
1.147781 0.048979 -0.033374
1.201064 0.044908 -0.034124
1.254347 0.040838 -0.034874
1.307630 0.036767 -0.035624
1.360913 0.032697 -0.036374
1.414196 0.028626 -0.037124
1.467478 0.024556 -0.037874
1.520761 0.020485 -0.038624
1.574044 0.016415 -0.039374
1.627327 0.012344 -0.040124
-0.097155 0.178251 -0.020151
-0.043872 0.174180 -0.020902
0.009411 0.170110 -0.021652
0.062694 0.166039 -0.022402
0.115976 0.161969 -0.023152
0.169259 0.157898 -0.023902
0.222542 0.153828 -0.024652
0.275825 0.149757 -0.025402
0.329108 0.145687 -0.026152
0.382391 0.141616 -0.026902
0.435673 0.137546 -0.027652
0.488956 0.133475 -0.028403
0.542239 0.129405 -0.029153
0.595522 0.125334 -0.029903
0.648805 0.121264 -0.030653
0.702088 0.117193 -0.031403
0.755370 0.113123 -0.032153
0.808653 0.109052 -0.032903
0.861936 0.104982 -0.033653
0.915219 0.100911 -0.034403
0.968502 0.096840 -0.035154
1.021785 0.092770 -0.035904
1.075068 0.088699 -0.036654
1.128350 0.084629 -0.037404
1.181633 0.080558 -0.038154
1.234916 0.076488 -0.038904
1.288199 0.072417 -0.039654
1.341482 0.068347 -0.040404
1.394765 0.064276 -0.041154
1.448047 0.060206 -0.041904
1.501330 0.056135 -0.042655
1.554613 0.052065 -0.043405
1.607896 0.047994 -0.044155
-0.116586 0.213901 -0.024182
-0.063303 0.209830 -0.024932
-0.010020 0.205760 -0.025682
0.043262 0.201689 -0.026432
0.096545 0.197619 -0.027182
0.149828 0.193548 -0.027932
0.203111 0.189478 -0.028682
0.256394 0.185407 -0.029432
0.309677 0.181337 -0.030183
0.362960 0.177266 -0.030933
0.416242 0.173196 -0.031683
0.469525 0.169125 -0.032433
0.522808 0.165055 -0.033183
0.576091 0.160984 -0.033933
0.629374 0.156914 -0.034683
0.682657 0.152843 -0.035433
0.735939 0.148773 -0.036183
0.789222 0.144702 -0.036933
0.842505 0.140632 -0.037684
0.895788 0.136561 -0.038434
0.949071 0.132491 -0.039184
1.002354 0.128420 -0.039934
1.055636 0.124350 -0.040684
1.108919 0.120279 -0.041434
1.162202 0.116209 -0.042184
1.215485 0.112138 -0.042934
1.268768 0.108068 -0.043684
1.322051 0.103997 -0.044435
1.375334 0.099927 -0.045185
1.428616 0.095856 -0.045935
1.481899 0.091786 -0.046685
1.535182 0.087715 -0.047435
1.588465 0.083644 -0.048185
-0.136017 0.249551 -0.028212
-0.082734 0.245481 -0.028962
-0.029451 0.241410 -0.029712
0.023832 0.237339 -0.030462
0.077114 0.233269 -0.031212
0.130397 0.229198 -0.031962
0.183680 0.225128 -0.032713
0.236963 0.221057 -0.033463
0.290246 0.216987 -0.034213
0.343529 0.212916 -0.034963
0.396811 0.208846 -0.035713
0.450094 0.204775 -0.036463
0.503377 0.200705 -0.037213
0.556660 0.196634 -0.037963
0.609943 0.192564 -0.038713
0.663226 0.188493 -0.039464
0.716508 0.184423 -0.040214
0.769791 0.180352 -0.040964
0.823074 0.176282 -0.041714
0.876357 0.172211 -0.042464
0.929640 0.168141 -0.043214
0.982923 0.164070 -0.043964
1.036206 0.160000 -0.044714
1.089488 0.155929 -0.045464
1.142771 0.151859 -0.046214
1.196054 0.147788 -0.046965
1.249337 0.143718 -0.047715
1.302620 0.139647 -0.048465
1.355902 0.135577 -0.049215
1.409185 0.131506 -0.049965
1.462468 0.127436 -0.050715
1.515751 0.123365 -0.051465
1.569034 0.119295 -0.052215
-0.155448 0.285201 -0.032242
-0.102165 0.281131 -0.032992
-0.048882 0.277060 -0.033742
0.004400 0.272990 -0.034493
0.057683 0.268919 -0.035243
0.110966 0.264849 -0.035993
0.164249 0.260778 -0.036743
0.217532 0.256708 -0.037493
0.270815 0.252637 -0.038243
0.324098 0.248567 -0.038993
0.377380 0.244496 -0.039743
0.430663 0.240426 -0.040493
0.483946 0.236355 -0.041244
0.537229 0.232285 -0.041994
0.590512 0.228214 -0.042744
0.643795 0.224144 -0.043494
0.697077 0.220073 -0.044244
0.750360 0.216002 -0.044994
0.803643 0.211932 -0.045744
0.856926 0.207861 -0.046494
0.910209 0.203791 -0.047244
0.963492 0.199720 -0.047994
1.016774 0.195650 -0.048745
1.070057 0.191579 -0.049495
1.123340 0.187509 -0.050245
1.176623 0.183438 -0.050995
1.229906 0.179368 -0.051745
1.283189 0.175297 -0.052495
1.336471 0.171227 -0.053245
1.389754 0.167156 -0.053995
1.443037 0.163086 -0.054745
1.496320 0.159015 -0.055495
1.549603 0.154945 -0.056246
-0.174879 0.320851 -0.036273
-0.121596 0.316781 -0.037023
-0.068313 0.312710 -0.037773
-0.015031 0.308640 -0.038523
0.038252 0.304569 -0.039273
0.091535 0.300499 -0.040023
0.144818 0.296428 -0.040773
0.198101 0.292358 -0.041523
0.251384 0.288287 -0.042273
0.304667 0.284217 -0.043023
0.357949 0.280146 -0.043774
0.411232 0.276076 -0.044524
0.464515 0.272005 -0.045274
0.517798 0.267935 -0.046024
0.571081 0.263864 -0.046774
0.624364 0.259794 -0.047524
0.677646 0.255723 -0.048274
0.730929 0.251653 -0.049024
0.784212 0.247582 -0.049774
0.837495 0.243512 -0.050525
0.890778 0.239441 -0.051275
0.944061 0.235371 -0.052025
0.997343 0.231300 -0.052775
1.050626 0.227230 -0.053525
1.103909 0.223159 -0.054275
1.157192 0.219088 -0.055025
1.210475 0.215018 -0.055775
1.263758 0.210947 -0.056525
1.317040 0.206877 -0.057275
1.370323 0.202806 -0.058026
1.423606 0.198736 -0.058776
1.476889 0.194665 -0.059526
1.530172 0.190595 -0.060276
-0.194310 0.356501 -0.040303
-0.141027 0.352431 -0.041053
-0.087744 0.348360 -0.041803
-0.034462 0.344290 -0.042553
0.018821 0.340219 -0.043303
0.072104 0.336149 -0.044053
0.125387 0.332078 -0.044803
0.178670 0.328008 -0.045554
0.231953 0.323937 -0.046304
0.285236 0.319867 -0.047054
0.338518 0.315796 -0.047804
0.391801 0.311726 -0.048554
0.445084 0.307655 -0.049304
0.498367 0.303585 -0.050054
0.551650 0.299514 -0.050804
0.604933 0.295444 -0.051554
0.658215 0.291373 -0.052304
0.711498 0.287303 -0.053055
0.764781 0.283232 -0.053805
0.818064 0.279162 -0.054555
0.871347 0.275091 -0.055305
0.924630 0.271021 -0.056055
0.977912 0.266950 -0.056805
1.031195 0.262880 -0.057555
1.084478 0.258809 -0.058305
1.137761 0.254739 -0.059055
1.191044 0.250668 -0.059806
1.244327 0.246598 -0.060556
1.297609 0.242527 -0.061306
1.350892 0.238457 -0.062056
1.404175 0.234386 -0.062806
1.457458 0.230316 -0.063556
1.510741 0.226245 -0.064306
-0.213741 0.392152 -0.044333
-0.160458 0.388081 -0.045083
-0.107175 0.384011 -0.045833
-0.053893 0.379940 -0.046583
-0.000610 0.375870 -0.047334
0.052673 0.371799 -0.048084
0.105956 0.367729 -0.048834
0.159239 0.363658 -0.049584
0.212522 0.359588 -0.050334
0.265805 0.355517 -0.051084
0.319087 0.351447 -0.051834
0.372370 0.347376 -0.052584
0.425653 0.343305 -0.053334
0.478936 0.339235 -0.054084
0.532219 0.335164 -0.054835
0.585502 0.331094 -0.055585
0.638784 0.327023 -0.056335
0.692067 0.322953 -0.057085
0.745350 0.318882 -0.057835
0.798633 0.314812 -0.058585
0.851916 0.310741 -0.059335
0.905199 0.306671 -0.060085
0.958481 0.302600 -0.060835
1.011764 0.298530 -0.061585
1.065047 0.294459 -0.062336
1.118330 0.290389 -0.063086
1.171613 0.286318 -0.063836
1.224896 0.282248 -0.064586
1.278178 0.278177 -0.065336
1.331461 0.274107 -0.066086
1.384744 0.270036 -0.066836
1.438027 0.265966 -0.067586
1.491310 0.261895 -0.068336
-0.233172 0.427802 -0.048363
-0.179889 0.423731 -0.049113
-0.126606 0.419661 -0.049864
-0.073324 0.415590 -0.050614
-0.020041 0.411520 -0.051364
0.033242 0.407449 -0.052114
0.086525 0.403379 -0.052864
0.139808 0.399308 -0.053614
0.193091 0.395238 -0.054364
0.246374 0.391167 -0.055114
0.299656 0.387097 -0.055864
0.352939 0.383026 -0.056615
0.406222 0.378956 -0.057365
0.459505 0.374885 -0.058115
0.512788 0.370815 -0.058865
0.566071 0.366744 -0.059615
0.619353 0.362674 -0.060365
0.672636 0.358603 -0.061115
0.725919 0.354533 -0.061865
0.779202 0.350462 -0.062615
0.832485 0.346392 -0.063365
0.885768 0.342321 -0.064116
0.939050 0.338251 -0.064866
0.992333 0.334180 -0.065616
1.045616 0.330109 -0.066366
1.098899 0.326039 -0.067116
1.152182 0.321968 -0.067866
1.205465 0.317898 -0.068616
1.258747 0.313827 -0.069366
1.312030 0.309757 -0.070116
1.365313 0.305686 -0.070867
1.418596 0.301616 -0.071617
1.471879 0.297545 -0.072367
-0.252603 0.463452 -0.052394
-0.199320 0.459381 -0.053144
-0.146037 0.455311 -0.053894
-0.092755 0.451240 -0.054644
-0.039472 0.447170 -0.055394
0.013811 0.443099 -0.056144
0.067094 0.439029 -0.056894
0.120377 0.434958 -0.057644
0.173660 0.430888 -0.058394
0.226943 0.426817 -0.059145
0.280225 0.422747 -0.059895
0.333508 0.418676 -0.060645
0.386791 0.414606 -0.061395
0.440074 0.410535 -0.062145
0.493357 0.406465 -0.062895
0.546640 0.402394 -0.063645
0.599922 0.398324 -0.064395
0.653205 0.394253 -0.065145
0.706488 0.390183 -0.065896
0.759771 0.386112 -0.066646
0.813054 0.382042 -0.067396
0.866337 0.377971 -0.068146
0.919619 0.373901 -0.068896
0.972902 0.369830 -0.069646
1.026185 0.365760 -0.070396
1.079468 0.361689 -0.071146
1.132751 0.357619 -0.071896
1.186034 0.353548 -0.072646
1.239316 0.349478 -0.073397
1.292599 0.345407 -0.074147
1.345882 0.341337 -0.074897
1.399165 0.337266 -0.075647
1.452448 0.333196 -0.076397
-0.272034 0.499102 -0.056424
-0.218751 0.495032 -0.057174
-0.165468 0.490961 -0.057924
-0.112186 0.486891 -0.058674
-0.058903 0.482820 -0.059424
-0.005620 0.478750 -0.060174
0.047663 0.474679 -0.060925
0.100946 0.470609 -0.061675
0.154229 0.466538 -0.062425
0.207512 0.462467 -0.063175
0.260794 0.458397 -0.063925
0.314077 0.454326 -0.064675
0.367360 0.450256 -0.065425
0.420643 0.446185 -0.066175
0.473926 0.442115 -0.066925
0.527209 0.438044 -0.067676
0.580491 0.433974 -0.068426
0.633774 0.429903 -0.069176
0.687057 0.425833 -0.069926
0.740340 0.421762 -0.070676
0.793623 0.417692 -0.071426
0.846906 0.413621 -0.072176
0.900188 0.409551 -0.072926
0.953471 0.405480 -0.073676
1.006754 0.401410 -0.074426
1.060037 0.397339 -0.075177
1.113320 0.393269 -0.075927
1.166603 0.389198 -0.076677
1.219885 0.385128 -0.077427
1.273168 0.381057 -0.078177
1.326451 0.376987 -0.078927
1.379734 0.372916 -0.079677
1.433017 0.368846 -0.080427
-0.291465 0.534752 -0.060454
-0.238182 0.530682 -0.061204
-0.184899 0.526611 -0.061954
-0.131617 0.522541 -0.062705
-0.078334 0.518470 -0.063455
-0.025051 0.514400 -0.064205
0.028232 0.510329 -0.064955
0.081515 0.506259 -0.065705
0.134798 0.502188 -0.066455
0.188081 0.498118 -0.067205
0.241363 0.494047 -0.067955
0.294646 0.489977 -0.068705
0.347929 0.485906 -0.069455
0.401212 0.481836 -0.070206
0.454495 0.477765 -0.070956
0.507778 0.473695 -0.071706
0.561060 0.469624 -0.072456
0.614343 0.465554 -0.073206
0.667626 0.461483 -0.073956
0.720909 0.457413 -0.074706
0.774192 0.453342 -0.075456
0.827475 0.449271 -0.076206
0.880757 0.445201 -0.076957
0.934040 0.441130 -0.077707
0.987323 0.437060 -0.078457
1.040606 0.432989 -0.079207
1.093889 0.428919 -0.079957
1.147172 0.424848 -0.080707
1.200454 0.420778 -0.081457
1.253737 0.416707 -0.082207
1.307020 0.412637 -0.082957
1.360303 0.408566 -0.083707
1.413586 0.404496 -0.084458
-0.310896 0.570402 -0.064484
-0.257613 0.566332 -0.065235
-0.204330 0.562261 -0.065985
-0.151048 0.558191 -0.066735
-0.097765 0.554120 -0.067485
-0.044482 0.550050 -0.068235
0.008801 0.545979 -0.068985
0.062084 0.541909 -0.069735
0.115367 0.537838 -0.070485
0.168650 0.533768 -0.071235
0.221932 0.529697 -0.071986
0.275215 0.525627 -0.072736
0.328498 0.521556 -0.073486
0.381781 0.517486 -0.074236
0.435064 0.513415 -0.074986
0.488347 0.509345 -0.075736
0.541629 0.505274 -0.076486
0.594912 0.501204 -0.077236
0.648195 0.497133 -0.077986
0.701478 0.493063 -0.078736
0.754761 0.488992 -0.079487
0.808044 0.484922 -0.080237
0.861326 0.480851 -0.080987
0.914609 0.476781 -0.081737
0.967892 0.472710 -0.082487
1.021175 0.468640 -0.083237
1.074458 0.464569 -0.083987
1.127741 0.460499 -0.084737
1.181023 0.456428 -0.085487
1.234306 0.452358 -0.086238
1.287589 0.448287 -0.086988
1.340872 0.444216 -0.087738
1.394155 0.440146 -0.088488
-0.330327 0.606053 -0.068515
-0.277044 0.601982 -0.069265
-0.223761 0.597911 -0.070015
-0.170479 0.593841 -0.070765
-0.117196 0.589770 -0.071515
-0.063913 0.585700 -0.072265
-0.010630 0.581629 -0.073015
0.042653 0.577559 -0.073766
0.095936 0.573488 -0.074516
0.149219 0.569418 -0.075266
0.202501 0.565347 -0.076016
0.255784 0.561277 -0.076766
0.309067 0.557206 -0.077516
0.362350 0.553136 -0.078266
0.415633 0.549065 -0.079016
0.468916 0.544995 -0.079766
0.522198 0.540924 -0.080516
0.575481 0.536854 -0.081267
0.628764 0.532783 -0.082017
0.682047 0.528713 -0.082767
0.735330 0.524642 -0.083517
0.788613 0.520572 -0.084267
0.841895 0.516501 -0.085017
0.895178 0.512431 -0.085767
0.948461 0.508360 -0.086517
1.001744 0.504290 -0.087267
1.055027 0.500219 -0.088017
1.108310 0.496149 -0.088768
1.161592 0.492078 -0.089518
1.214875 0.488008 -0.090268
1.268158 0.483937 -0.091018
1.321441 0.479867 -0.091768
1.374724 0.475796 -0.092518
-0.349758 0.641703 -0.072545
-0.296475 0.637632 -0.073295
-0.243192 0.633562 -0.074045
-0.189910 0.629491 -0.074795
-0.136627 0.625421 -0.075545
-0.083344 0.621350 -0.076296
-0.030061 0.617280 -0.077046
0.023222 0.613209 -0.077796
0.076505 0.609139 -0.078546
0.129788 0.605068 -0.079296
0.183070 0.600998 -0.080046
0.236353 0.596927 -0.080796
0.289636 0.592857 -0.081546
0.342919 0.588786 -0.082296
0.396202 0.584715 -0.083047
0.449485 0.580645 -0.083797
0.502767 0.576574 -0.084547
0.556050 0.572504 -0.085297
0.609333 0.568433 -0.086047
0.662616 0.564363 -0.086797
0.715899 0.560292 -0.087547
0.769182 0.556222 -0.088297
0.822464 0.552151 -0.089047
0.875747 0.548081 -0.089797
0.929030 0.544010 -0.090548
0.982313 0.539940 -0.091298
1.035596 0.535869 -0.092048
1.088879 0.531799 -0.092798
1.142161 0.527728 -0.093548
1.195444 0.523658 -0.094298
1.248727 0.519587 -0.095048
1.302010 0.515517 -0.095798
1.355293 0.511446 -0.096548
-0.369189 0.677353 -0.076575
-0.315906 0.673282 -0.077325
-0.262623 0.669212 -0.078076
-0.209341 0.665141 -0.078826
-0.156058 0.661071 -0.079576
-0.102775 0.657000 -0.080326
-0.049492 0.652930 -0.081076
0.003791 0.648859 -0.081826
0.057074 0.644789 -0.082576
0.110357 0.640718 -0.083326
0.163639 0.636648 -0.084076
0.216922 0.632577 -0.084826
0.270205 0.628507 -0.085577
0.323488 0.624436 -0.086327
0.376771 0.620366 -0.087077
0.430054 0.616295 -0.087827
0.483336 0.612225 -0.088577
0.536619 0.608154 -0.089327
0.589902 0.604084 -0.090077
0.643185 0.600013 -0.090827
0.696468 0.595943 -0.091577
0.749751 0.591872 -0.092328
0.803033 0.587802 -0.093078
0.856316 0.583731 -0.093828
0.909599 0.579661 -0.094578
0.962882 0.575590 -0.095328
1.016165 0.571519 -0.096078
1.069448 0.567449 -0.096828
1.122730 0.563378 -0.097578
1.176013 0.559308 -0.098328
1.229296 0.555237 -0.099078
1.282579 0.551167 -0.099829
1.335862 0.547096 -0.100579
-0.388620 0.713003 -0.080606
-0.335337 0.708932 -0.081356
-0.282054 0.704862 -0.082106
-0.228772 0.700791 -0.082856
-0.175489 0.696721 -0.083606
-0.122206 0.692650 -0.084356
-0.068923 0.688580 -0.085106
-0.015640 0.684509 -0.085856
0.037643 0.680439 -0.086606
0.090926 0.676368 -0.087357
0.144208 0.672298 -0.088107
0.197491 0.668227 -0.088857
0.250774 0.664157 -0.089607
0.304057 0.660086 -0.090357
0.357340 0.656016 -0.091107
0.410623 0.651945 -0.091857
0.463905 0.647875 -0.092607
0.517188 0.643804 -0.093357
0.570471 0.639734 -0.094107
0.623754 0.635663 -0.094858
0.677037 0.631593 -0.095608
0.730320 0.627522 -0.096358
0.783602 0.623452 -0.097108
0.836885 0.619381 -0.097858
0.890168 0.615311 -0.098608
0.943451 0.611240 -0.099358
0.996734 0.607170 -0.100108
1.050017 0.603099 -0.100858
1.103299 0.599029 -0.101609
1.156582 0.594958 -0.102359
1.209865 0.590888 -0.103109
1.263148 0.586817 -0.103859
1.316431 0.582747 -0.104609
-0.408051 0.748653 -0.084636
-0.354768 0.744583 -0.085386
-0.301485 0.740512 -0.086136
-0.248203 0.736442 -0.086886
-0.194920 0.732371 -0.087636
-0.141637 0.728301 -0.088386
-0.088354 0.724230 -0.089137
-0.035071 0.720160 -0.089887
0.018212 0.716089 -0.090637
0.071494 0.712018 -0.091387
0.124777 0.707948 -0.092137
0.178060 0.703877 -0.092887
0.231343 0.699807 -0.093637
0.284626 0.695736 -0.094387
0.337909 0.691666 -0.095137
0.391192 0.687595 -0.095887
0.444474 0.683525 -0.096638
0.497757 0.679454 -0.097388
0.551040 0.675384 -0.098138
0.604323 0.671313 -0.098888
0.657606 0.667243 -0.099638
0.710889 0.663172 -0.100388
0.764171 0.659102 -0.101138
0.817454 0.655031 -0.101888
0.870737 0.650961 -0.102638
0.924020 0.646890 -0.103389
0.977303 0.642820 -0.104139
1.030586 0.638749 -0.104889
1.083868 0.634679 -0.105639
1.137151 0.630608 -0.106389
1.190434 0.626538 -0.107139
1.243717 0.622467 -0.107889
1.297000 0.618397 -0.108639
-0.427482 0.784303 -0.088666
-0.374199 0.780233 -0.089416
-0.320916 0.776162 -0.090166
-0.267634 0.772092 -0.090916
-0.214351 0.768021 -0.091667
-0.161068 0.763951 -0.092417
-0.107785 0.759880 -0.093167
-0.054502 0.755810 -0.093917
-0.001219 0.751739 -0.094667
0.052063 0.747669 -0.095417
0.105346 0.743598 -0.096167
0.158629 0.739528 -0.096917
0.211912 0.735457 -0.097667
0.265195 0.731387 -0.098418
0.318478 0.727316 -0.099168
0.371761 0.723246 -0.099918
0.425043 0.719175 -0.100668
0.478326 0.715105 -0.101418
0.531609 0.711034 -0.102168
0.584892 0.706964 -0.102918
0.638175 0.702893 -0.103668
0.691458 0.698823 -0.104418
0.744740 0.694752 -0.105168
0.798023 0.690682 -0.105919
0.851306 0.686611 -0.106669
0.904589 0.682540 -0.107419
0.957872 0.678470 -0.108169
1.011155 0.674399 -0.108919
1.064437 0.670329 -0.109669
1.117720 0.666258 -0.110419
1.171003 0.662188 -0.111169
1.224286 0.658117 -0.111919
1.277569 0.654047 -0.112670
-0.446913 0.819953 -0.092696
-0.393630 0.815883 -0.093447
-0.340347 0.811812 -0.094197
-0.287065 0.807742 -0.094947
-0.233782 0.803671 -0.095697
-0.180499 0.799601 -0.096447
-0.127216 0.795530 -0.097197
-0.073933 0.791460 -0.097947
-0.020650 0.787389 -0.098697
0.032632 0.783319 -0.099447
0.085915 0.779248 -0.100197
0.139198 0.775178 -0.100948
0.192481 0.771107 -0.101698
0.245764 0.767037 -0.102448
0.299047 0.762966 -0.103198
0.352330 0.758896 -0.103948
0.405612 0.754825 -0.104698
0.458895 0.750755 -0.105448
0.512178 0.746684 -0.106198
0.565461 0.742614 -0.106948
0.618744 0.738543 -0.107699
0.672027 0.734473 -0.108449
0.725309 0.730402 -0.109199
0.778592 0.726332 -0.109949
0.831875 0.722261 -0.110699
0.885158 0.718191 -0.111449
0.938441 0.714120 -0.112199
0.991724 0.710050 -0.112949
1.045006 0.705979 -0.113699
1.098289 0.701909 -0.114449
1.151572 0.697838 -0.115200
1.204855 0.693768 -0.115950
1.258138 0.689697 -0.116700
-0.466344 0.855604 -0.096727
-0.413061 0.851533 -0.097477
-0.359778 0.847463 -0.098227
-0.306496 0.843392 -0.098977
-0.253213 0.839321 -0.099727
-0.199930 0.835251 -0.100477
-0.146647 0.831181 -0.101227
-0.093364 0.827110 -0.101977
-0.040081 0.823039 -0.102728
0.013201 0.818969 -0.103478
0.066484 0.814898 -0.104228
0.119767 0.810828 -0.104978
0.173050 0.806757 -0.105728
0.226333 0.802687 -0.106478
0.279616 0.798616 -0.107228
0.332898 0.794546 -0.107978
0.386181 0.790475 -0.108728
0.439464 0.786405 -0.109479
0.492747 0.782334 -0.110229
0.546030 0.778264 -0.110979
0.599313 0.774193 -0.111729
0.652596 0.770123 -0.112479
0.705878 0.766052 -0.113229
0.759161 0.761982 -0.113979
0.812444 0.757911 -0.114729
0.865727 0.753841 -0.115479
0.919010 0.749770 -0.116229
0.972293 0.745700 -0.116980
1.025575 0.741629 -0.117730
1.078858 0.737559 -0.118480
1.132141 0.733488 -0.119230
1.185424 0.729418 -0.119980
1.238707 0.725347 -0.120730
-0.485775 0.891254 -0.100757
-0.432492 0.887183 -0.101507
-0.379209 0.883113 -0.102257
-0.325927 0.879042 -0.103007
-0.272644 0.874972 -0.103757
-0.219361 0.870901 -0.104508
-0.166078 0.866831 -0.105258
-0.112795 0.862760 -0.106008
-0.059512 0.858690 -0.106758
-0.006230 0.854619 -0.107508
0.047053 0.850549 -0.108258
0.100336 0.846478 -0.109008
0.153619 0.842408 -0.109758
0.206902 0.838337 -0.110508
0.260185 0.834267 -0.111258
0.313468 0.830196 -0.112009
0.366750 0.826126 -0.112759
0.420033 0.822055 -0.113509
0.473316 0.817984 -0.114259
0.526599 0.813914 -0.115009
0.579882 0.809843 -0.115759
0.633165 0.805773 -0.116509
0.686447 0.801702 -0.117259
0.739730 0.797632 -0.118009
