Astral-Runtime/Renderer/Assets/LUTs/acescg_to_rec709_linear_no_shaper.cube
LUT_3D_SIZE 9
0.000000 0.000000 0.000000
0.213131 -0.016282 -0.003000
0.426263 -0.032564 -0.006001
0.639394 -0.048846 -0.009001
0.852525 -0.065128 -0.012002
1.065657 -0.081410 -0.015002
1.278788 -0.097692 -0.018003
1.491920 -0.113974 -0.021003
1.705051 -0.130256 -0.024003
-0.077724 0.142601 -0.016121
0.135407 0.126319 -0.019122
0.348539 0.110036 -0.022122
0.561670 0.093754 -0.025122
0.774801 0.077472 -0.028123
0.987933 0.061190 -0.031123
1.201064 0.044908 -0.034124
1.414196 0.028626 -0.037124
1.627327 0.012344 -0.040124
-0.155448 0.285201 -0.032242
0.057683 0.268919 -0.035243
0.270815 0.252637 -0.038243
0.483946 0.236355 -0.041244
0.697077 0.220073 -0.044244
0.910209 0.203791 -0.047244
1.123340 0.187509 -0.050245
1.336471 0.171227 -0.053245
1.549603 0.154945 -0.056246
-0.233172 0.427802 -0.048363
-0.020041 0.411520 -0.051364
0.193091 0.395238 -0.054364
0.406222 0.378956 -0.057365
0.619353 0.362674 -0.060365
0.832485 0.346392 -0.063365
1.045616 0.330109 -0.066366
1.258747 0.313827 -0.069366
1.471879 0.297545 -0.072367
-0.310896 0.570402 -0.064484
-0.097765 0.554120 -0.067485
0.115367 0.537838 -0.070485
0.328498 0.521556 -0.073486
0.541629 0.505274 -0.076486
0.754761 0.488992 -0.079487
0.967892 0.472710 -0.082487
1.181023 0.456428 -0.085487
1.394155 0.440146 -0.088488
-0.388620 0.713003 -0.080606
-0.175489 0.696721 -0.083606
0.037643 0.680439 -0.086606
0.250774 0.664157 -0.089607
0.463905 0.647875 -0.092607
0.677037 0.631593 -0.095608
0.890168 0.615311 -0.098608
1.103299 0.599029 -0.101609
1.316431 0.582747 -0.104609
-0.466344 0.855604 -0.096727
-0.253213 0.839321 -0.099727
-0.040081 0.823039 -0.102728
0.173050 0.806757 -0.105728
0.386181 0.790475 -0.108728
0.599313 0.774193 -0.111729
0.812444 0.757911 -0.114729
1.025575 0.741629 -0.117730
1.238707 0.725347 -0.120730
-0.544068 0.998204 -0.112848
-0.330937 0.981922 -0.115848
-0.117805 0.965640 -0.118849
0.095326 0.949358 -0.121849
0.308457 0.933076 -0.124850
0.521589 0.916794 -0.127850
0.734720 0.900512 -0.130850
0.947851 0.884230 -0.133851
1.160983 0.867948 -0.136851
-0.621792 1.140805 -0.128969
-0.408661 1.124523 -0.131969
-0.195529 1.108241 -0.134970
0.017602 1.091959 -0.137970
0.230733 1.075677 -0.140971
0.443865 1.059394 -0.143971
0.656996 1.043113 -0.146971
0.870127 1.026830 -0.149972
1.083259 1.010548 -0.152972
-0.010407 -0.001319 0.144122
0.202724 -0.017601 0.141121
0.415855 -0.033883 0.138121
0.628987 -0.050165 0.135120
0.842118 -0.066447 0.132120
1.055250 -0.082729 0.129119
1.268381 -0.099011 0.126119
1.481512 -0.115293 0.123119
1.694644 -0.131575 0.120118
-0.088131 0.141282 0.128000
0.125000 0.125000 0.125000
0.338131 0.108718 0.122000
0.551263 0.092436 0.118999
0.764394 0.076154 0.115999
0.977525 0.059872 0.112998
1.190657 0.043590 0.109998
1.403788 0.027308 0.106997
1.616920 0.011026 0.103997
-0.165855 0.283883 0.111879
0.047276 0.267601 0.108879
0.260407 0.251319 0.105878
0.473539 0.235036 0.102878
0.686670 0.218754 0.099878
0.899801 0.202472 0.096877
1.112933 0.186190 0.093877
1.326064 0.169908 0.090876
1.539196 0.153626 0.087876
-0.243579 0.426483 0.095758
-0.030448 0.410201 0.092758
0.182683 0.393919 0.089757
0.395815 0.377637 0.086757
0.608946 0.361355 0.083756
0.822077 0.345073 0.080756
1.035209 0.328791 0.077756
1.248340 0.312509 0.074755
1.461472 0.296227 0.071755
-0.321303 0.569084 0.079637
-0.108172 0.552802 0.076637
0.104959 0.536520 0.073636
0.318091 0.520238 0.070636
0.531222 0.503956 0.067635
0.744353 0.487674 0.064635
0.957485 0.471392 0.061635
1.170616 0.455109 0.058634
1.383748 0.438827 0.055634
-0.399027 0.711684 0.063516
-0.185896 0.695402 0.060516
0.027235 0.679120 0.057515
0.240367 0.662838 0.054515
0.453498 0.646556 0.051514
0.666629 0.630274 0.048514
0.879761 0.613992 0.045513
1.092892 0.597710 0.042513
1.306023 0.581428 0.039513
-0.476751 0.854285 0.047395
-0.263620 0.838003 0.044394
-0.050489 0.821721 0.041394
0.162643 0.805439 0.038394
0.375774 0.789157 0.035393
0.588905 0.772875 0.032393
0.802037 0.756593 0.029392
1.015168 0.740311 0.026392
1.228299 0.724029 0.023391
-0.554475 0.996886 0.031274
-0.341344 0.980604 0.028273
-0.128213 0.964322 0.025273
0.084919 0.948039 0.022272
0.298050 0.931757 0.019272
0.511181 0.915475 0.016272
0.724313 0.899193 0.013271
0.937444 0.882911 0.010271
1.150576 0.866629 0.007270
-0.632200 1.139486 0.015153
-0.419068 1.123204 0.012152
-0.205937 1.106922 0.009152
0.007195 1.090640 0.006151
0.220326 1.074358 0.003151
0.433457 1.058076 0.000150
0.646589 1.041794 -0.002850
0.859720 1.025512 -0.005850
1.072852 1.009230 -0.008851
-0.020815 -0.002637 0.288243
0.192317 -0.018919 0.285243
0.405448 -0.035201 0.282242
0.618579 -0.051483 0.279242
0.831711 -0.067765 0.276241
1.044842 -0.084047 0.273241
1.257973 -0.100329 0.270241
1.471105 -0.116611 0.267240
1.684236 -0.132893 0.264240
-0.098539 0.139964 0.272122
0.114593 0.123681 0.269122
0.327724 0.107399 0.266121
0.540855 0.091117 0.263121
0.753987 0.074835 0.260120
0.967118 0.058553 0.257120
1.180249 0.042271 0.254119
1.393381 0.025989 0.251119
1.606512 0.009707 0.248119
-0.176263 0.282564 0.256001
0.036869 0.266282 0.253000
0.250000 0.250000 0.250000
0.463131 0.233718 0.247000
0.676263 0.217436 0.243999
0.889394 0.201154 0.240999
1.102525 0.184872 0.237998
1.315657 0.168590 0.234998
1.528788 0.152308 0.231997
-0.253987 0.425165 0.239880
-0.040855 0.408883 0.236879
0.172276 0.392601 0.233879
0.385407 0.376319 0.230878
0.598539 0.360036 0.227878
0.811670 0.343754 0.224878
1.024801 0.327472 0.221877
1.237933 0.311190 0.218877
1.451064 0.294908 0.215876
-0.331711 0.567765 0.223759
-0.118579 0.551483 0.220758
0.094552 0.535201 0.217758
0.307683 0.518919 0.214757
0.520815 0.502637 0.211757
0.733946 0.486355 0.208757
0.947077 0.470073 0.205756
1.160209 0.453791 0.202756
1.373340 0.437509 0.199755
-0.409435 0.710366 0.207637
-0.196303 0.694084 0.204637
0.016828 0.677802 0.201637
0.229959 0.661520 0.198636
0.443091 0.645238 0.195636
0.656222 0.628956 0.192635
0.869353 0.612674 0.189635
1.082485 0.596391 0.186635
1.295616 0.580109 0.183634
-0.487159 0.852966 0.191516
-0.274027 0.836684 0.188516
-0.060896 0.820402 0.185516
0.152235 0.804120 0.182515
0.365367 0.787838 0.179515
0.578498 0.771556 0.176514
0.791629 0.755274 0.173514
1.004761 0.738992 0.170513
1.217892 0.722710 0.167513
-0.564883 0.995567 0.175395
-0.351751 0.979285 0.172395
-0.138620 0.963003 0.169394
0.074511 0.946721 0.166394
0.287643 0.930439 0.163394
0.500774 0.914157 0.160393
0.713905 0.897875 0.157393
0.927037 0.881593 0.154392
1.140168 0.865311 0.151392
-0.642607 1.138168 0.159274
-0.429475 1.121886 0.156274
-0.216344 1.105604 0.153273
-0.003213 1.089322 0.150273
0.209919 1.073040 0.147272
0.423050 1.056757 0.144272
0.636181 1.040475 0.141272
0.849313 1.024193 0.138271
1.062444 1.007911 0.135271
-0.031222 -0.003956 0.432365
0.181909 -0.020238 0.429364
0.395041 -0.036520 0.426364
0.608172 -0.052802 0.423363
0.821303 -0.069084 0.420363
1.034435 -0.085366 0.417363
1.247566 -0.101648 0.414362
1.460697 -0.117930 0.411362
1.673829 -0.134212 0.408361
-0.108946 0.138645 0.416244
0.104185 0.122363 0.413243
0.317317 0.106081 0.410243
0.530448 0.089799 0.407242
0.743579 0.073517 0.404242
0.956711 0.057235 0.401241
1.169842 0.040953 0.398241
1.382973 0.024671 0.395241
1.596105 0.008389 0.392240
-0.186670 0.281246 0.400122
0.026461 0.264964 0.397122
0.239593 0.248681 0.394122
0.452724 0.232399 0.391121
0.665855 0.216117 0.388121
0.878987 0.199835 0.385120
1.092118 0.183553 0.382120
1.305249 0.167271 0.379119
1.518381 0.150989 0.376119
-0.264394 0.423846 0.384001
-0.051263 0.407564 0.381001
0.161869 0.391282 0.378000
0.375000 0.375000 0.375000
0.588131 0.358718 0.372000
0.801263 0.342436 0.368999
1.014394 0.326154 0.365999
1.227525 0.309872 0.362998
1.440657 0.293590 0.359998
-0.342118 0.566447 0.367880
-0.128987 0.550165 0.364880
0.084145 0.533883 0.361879
0.297276 0.517601 0.358879
0.510407 0.501319 0.355878
0.723539 0.485036 0.352878
0.936670 0.468754 0.349878
1.149801 0.452472 0.346877
1.362933 0.436190 0.343877
-0.419842 0.709047 0.351759
-0.206711 0.692765 0.348759
0.006421 0.676483 0.345758
0.219552 0.660201 0.342758
0.432683 0.643919 0.339757
0.645815 0.627637 0.336757
0.858946 0.611355 0.333757
1.072077 0.595073 0.330756
1.285209 0.578791 0.327756
-0.497566 0.851648 0.335638
-0.284435 0.835366 0.332637
-0.071303 0.819084 0.329637
0.141828 0.802802 0.326637
0.354959 0.786520 0.323636
0.568091 0.770238 0.320636
0.781222 0.753956 0.317635
0.994353 0.737674 0.314635
1.207485 0.721392 0.311635
-0.575290 0.994249 0.319517
-0.362159 0.977967 0.316516
-0.149027 0.961684 0.313516
0.064104 0.945402 0.310516
0.277235 0.929120 0.307515
0.490367 0.912838 0.304515
0.703498 0.896556 0.301514
0.916629 0.880274 0.298514
1.129761 0.863992 0.295513
-0.653014 1.136849 0.303396
-0.439883 1.120567 0.300395
-0.226751 1.104285 0.297395
-0.013620 1.088003 0.294394
0.199511 1.071721 0.291394
0.412643 1.055439 0.288394
0.625774 1.039157 0.285393
0.838905 1.022875 0.282393
1.052037 1.006593 0.279392
-0.041629 -0.005274 0.576486
0.171502 -0.021556 0.573486
0.384633 -0.037838 0.570485
0.597765 -0.054120 0.567485
0.810896 -0.070402 0.564484
1.024027 -0.086684 0.561484
1.237159 -0.102966 0.558484
1.450290 -0.119249 0.555483
1.663422 -0.135531 0.552483
-0.119353 0.137326 0.560365
0.093778 0.121044 0.557365
0.306909 0.104762 0.554364
0.520041 0.088480 0.551364
0.733172 0.072198 0.548363
0.946303 0.055916 0.545363
1.159435 0.039634 0.542363
1.372566 0.023352 0.539362
1.585698 0.007070 0.536362
-0.197077 0.279927 0.544244
0.016054 0.263645 0.541243
0.229185 0.247363 0.538243
0.442317 0.231081 0.535243
0.655448 0.214799 0.532242
0.868579 0.198517 0.529242
1.081711 0.182235 0.526241
1.294842 0.165953 0.523241
1.507973 0.149671 0.520241
-0.274801 0.422528 0.528123
-0.061670 0.406246 0.525122
0.151461 0.389964 0.522122
0.364593 0.373681 0.519122
0.577724 0.357399 0.516121
0.790855 0.341117 0.513121
1.003987 0.324835 0.510120
1.217118 0.308553 0.507120
1.430249 0.292271 0.504119
-0.352526 0.565128 0.512002
-0.139394 0.548846 0.509001
0.073737 0.532564 0.506001
0.286869 0.516282 0.503000
0.500000 0.500000 0.500000
0.713131 0.483718 0.497000
0.926263 0.467436 0.493999
1.139394 0.451154 0.490999
1.352525 0.434872 0.487998
-0.430250 0.707729 0.495881
-0.217118 0.691447 0.492880
-0.003987 0.675165 0.489880
0.209145 0.658883 0.486879
0.422276 0.642601 0.483879
0.635407 0.626319 0.480878
0.848539 0.610036 0.477878
1.061670 0.593754 0.474878
1.274801 0.577472 0.471877
-0.507974 0.850329 0.479759
-0.294842 0.834047 0.476759
-0.081711 0.817765 0.473759
0.131421 0.801483 0.470758
0.344552 0.785201 0.467758
0.557683 0.768919 0.464757
0.770815 0.752637 0.461757
0.983946 0.736355 0.458757
1.197077 0.720073 0.455756
-0.585698 0.992930 0.463638
-0.372566 0.976648 0.460638
-0.159435 0.960366 0.457637
0.053697 0.944084 0.454637
0.266828 0.927802 0.451637
0.479959 0.911520 0.448636
0.693091 0.895238 0.445636
0.906222 0.878956 0.442635
1.119353 0.862674 0.439635
-0.663422 1.135531 0.447517
-0.450290 1.119249 0.444517
-0.237159 1.102966 0.441516
-0.024027 1.086684 0.438516
0.189104 1.070402 0.435516
0.402235 1.054120 0.432515
0.615367 1.037838 0.429515
0.828498 1.021556 0.426514
1.041629 1.005274 0.423514
-0.052037 -0.006593 0.720608
0.161095 -0.022875 0.717607
0.374226 -0.039157 0.714607
0.587357 -0.055439 0.711606
0.800489 -0.071721 0.708606
1.013620 -0.088003 0.705606
1.226751 -0.104285 0.702605
1.439883 -0.120567 0.699605
1.653014 -0.136849 0.696604
-0.129761 0.136008 0.704487
0.083371 0.119726 0.701486
0.296502 0.103444 0.698486
0.509633 0.087162 0.695485
0.722765 0.070880 0.692485
0.935896 0.054598 0.689484
1.149027 0.038316 0.686484
1.362159 0.022034 0.683484
1.575290 0.005751 0.680483
-0.207485 0.278609 0.688365
0.005647 0.262326 0.685365
0.218778 0.246044 0.682365
0.431909 0.229762 0.679364
0.645041 0.213480 0.676364
0.858172 0.197198 0.673363
1.071303 0.180916 0.670363
1.284435 0.164634 0.667363
1.497566 0.148352 0.664362
-0.285209 0.421209 0.672244
-0.072077 0.404927 0.669244
0.141054 0.388645 0.666243
0.354185 0.372363 0.663243
0.567317 0.356081 0.660243
0.780448 0.339799 0.657242
0.993579 0.323517 0.654242
1.206711 0.307235 0.651241
1.419842 0.290953 0.648241
-0.362933 0.563810 0.656123
-0.149801 0.547528 0.653123
0.063330 0.531246 0.650122
0.276461 0.514964 0.647122
0.489593 0.498681 0.644122
0.702724 0.482399 0.641121
0.915855 0.466117 0.638121
1.128987 0.449835 0.635120
1.342118 0.433553 0.632120
-0.440657 0.706410 0.640002
-0.227526 0.690128 0.637002
-0.014394 0.673846 0.634001
0.198737 0.657564 0.631001
0.411869 0.641282 0.628000
0.625000 0.625000 0.625000
0.838131 0.608718 0.622000
1.051263 0.592436 0.618999
1.264394 0.576154 0.615999
-0.518381 0.849011 0.623881
-0.305250 0.832729 0.620881
-0.092118 0.816447 0.617880
0.121013 0.800165 0.614880
0.334145 0.783883 0.611879
0.547276 0.767601 0.608879
0.760407 0.751319 0.605878
0.973539 0.735037 0.602878
1.186670 0.718754 0.599878
-0.596105 0.991611 0.607760
-0.382974 0.975329 0.604759
-0.169842 0.959047 0.601759
0.043289 0.942765 0.598759
0.256421 0.926483 0.595758
0.469552 0.910201 0.592758
0.682683 0.893919 0.589757
0.895815 0.877637 0.586757
1.108946 0.861355 0.583757
-0.673829 1.134212 0.591639
-0.460698 1.117930 0.588638
-0.247566 1.101648 0.585638
-0.034435 1.085366 0.582637
0.178697 1.069084 0.579637
0.391828 1.052802 0.576637
0.604959 1.036520 0.573636
0.818091 1.020238 0.570636
1.031222 1.003956 0.567635
-0.062444 -0.007911 0.864729
0.150687 -0.024193 0.861729
0.363819 -0.040475 0.858728
0.576950 -0.056757 0.855728
0.790081 -0.073039 0.852728
1.003213 -0.089321 0.849727
1.216344 -0.105604 0.846727
1.429475 -0.121886 0.843726
1.642607 -0.138168 0.840726
-0.140168 0.134689 0.848608
0.072963 0.118407 0.845608
0.286095 0.102125 0.842607
0.499226 0.085843 0.839607
0.712357 0.069561 0.836607
0.925489 0.053279 0.833606
1.138620 0.036997 0.830606
1.351751 0.020715 0.827605
1.564883 0.004433 0.824605
-0.217892 0.277290 0.832487
-0.004761 0.261008 0.829487
0.208371 0.244726 0.826486
0.421502 0.228444 0.823486
0.634633 0.212162 0.820485
0.847765 0.195880 0.817485
1.060896 0.179598 0.814485
1.274027 0.163316 0.811484
1.487159 0.147034 0.808484
-0.295616 0.419891 0.816366
-0.082485 0.403609 0.813366
0.130647 0.387326 0.810365
0.343778 0.371044 0.807365
0.556909 0.354762 0.804364
0.770041 0.338480 0.801364
0.983172 0.322198 0.798363
1.196303 0.305916 0.795363
1.409435 0.289634 0.792363
-0.373340 0.562491 0.800245
-0.160209 0.546209 0.797244
0.052923 0.529927 0.794244
0.266054 0.513645 0.791244
0.479185 0.497363 0.788243
0.692317 0.481081 0.785243
0.905448 0.464799 0.782242
1.118579 0.448517 0.779242
1.331711 0.432235 0.776241
-0.451064 0.705092 0.784124
-0.237933 0.688810 0.781123
-0.024802 0.672528 0.778123
0.188330 0.656246 0.775122
0.401461 0.639964 0.772122
0.614593 0.623681 0.769122
0.827724 0.607399 0.766121
1.040855 0.591117 0.763121
1.253987 0.574835 0.760120
-0.528788 0.847692 0.768003
-0.315657 0.831410 0.765002
-0.102526 0.815128 0.762002
0.110606 0.798846 0.759001
0.323737 0.782564 0.756001
0.536869 0.766282 0.753000
0.750000 0.750000 0.750000
0.963131 0.733718 0.747000
1.176263 0.717436 0.743999
-0.606512 0.990293 0.751881
-0.393381 0.974011 0.748881
-0.180250 0.957729 0.745881
0.032882 0.941447 0.742880
0.246013 0.925165 0.739880
0.459145 0.908883 0.736879
0.672276 0.892601 0.733879
0.885407 0.876319 0.730878
1.098539 0.860036 0.727878
-0.684236 1.132894 0.735760
-0.471105 1.116611 0.732760
-0.257974 1.100329 0.729759
-0.044842 1.084047 0.726759
0.168289 1.067765 0.723759
0.381421 1.051483 0.720758
0.594552 1.035201 0.717758
0.807683 1.018919 0.714757
1.020815 1.002637 0.711757
-0.072852 -0.009230 1.008851
0.140280 -0.025512 1.005850
0.353411 -0.041794 1.002850
0.566543 -0.058076 0.999850
0.779674 -0.074358 0.996849
0.992805 -0.090640 0.993849
1.205937 -0.106922 0.990848
1.419068 -0.123204 0.987848
1.632199 -0.139486 0.984847
-0.150576 0.133371 0.992730
0.062556 0.117089 0.989729
0.275687 0.100807 0.986729
0.488819 0.084525 0.983728
0.701950 0.068243 0.980728
0.915081 0.051961 0.977728
1.128213 0.035679 0.974727
1.341344 0.019396 0.971727
1.554475 0.003114 0.968726
-0.228300 0.275971 0.976609
-0.015168 0.259689 0.973608
0.197963 0.243407 0.970608
0.411095 0.227125 0.967607
0.624226 0.210843 0.964607
0.837357 0.194561 0.961607
1.050489 0.178279 0.958606
1.263620 0.161997 0.955606
1.476751 0.145715 0.952605
-0.306024 0.418572 0.960487
-0.092892 0.402290 0.957487
0.120239 0.386008 0.954487
0.333371 0.369726 0.951486
0.546502 0.353444 0.948486
0.759633 0.337162 0.945485
0.972765 0.320880 0.942485
1.185896 0.304598 0.939484
1.399027 0.288316 0.936484
-0.383748 0.561173 0.944366
-0.170616 0.544891 0.941366
0.042515 0.528609 0.938365
0.255647 0.512326 0.935365
0.468778 0.496044 0.932365
0.681909 0.479762 0.929364
0.895041 0.463480 0.926364
1.108172 0.447198 0.923363
1.321303 0.430916 0.920363
-0.461472 0.703773 0.928245
-0.248340 0.687491 0.925245
-0.035209 0.671209 0.922244
0.177923 0.654927 0.919244
0.391054 0.638645 0.916244
0.604185 0.622363 0.913243
0.817317 0.606081 0.910243
1.030448 0.589799 0.907242
1.243579 0.573517 0.904242
-0.539196 0.846374 0.912124
-0.326064 0.830092 0.909124
-0.112933 0.813810 0.906123
0.100198 0.797528 0.903123
0.313330 0.781246 0.900122
0.526461 0.764964 0.897122
0.739593 0.748681 0.894122
0.952724 0.732399 0.891121
1.165855 0.716117 0.888121
-0.616920 0.988974 0.896003
-0.403788 0.972692 0.893003
-0.190657 0.956410 0.890002
0.022474 0.940128 0.887002
0.235606 0.923846 0.884001
0.448737 0.907564 0.881001
0.661869 0.891282 0.878000
0.875000 0.875000 0.875000
1.088131 0.858718 0.872000
-0.694644 1.131575 0.879882
-0.481512 1.115293 0.876881
-0.268381 1.099011 0.873881
-0.055250 1.082729 0.870881
0.157882 1.066447 0.867880
0.371013 1.050165 0.864880
0.584145 1.033883 0.861879
0.797276 1.017601 0.858879
1.010407 1.001319 0.855878
-0.083259 -0.010548 1.152972
0.129873 -0.026830 1.149972
0.343004 -0.043112 1.146971
0.556135 -0.059394 1.143971
0.769267 -0.075677 1.140971
0.982398 -0.091959 1.137970
1.195529 -0.108241 1.134970
1.408661 -0.124523 1.131969
1.621792 -0.140805 1.128969
-0.160983 0.132052 1.136851
0.052148 0.115770 1.133851
0.265280 0.099488 1.130850
0.478411 0.083206 1.127850
0.691543 0.066924 1.124850
0.904674 0.050642 1.121849
1.117805 0.034360 1.118849
1.330937 0.018078 1.115848
1.544068 0.001796 1.112848
-0.238707 0.274653 1.120730
-0.025576 0.258371 1.117730
0.187556 0.242089 1.114729
0.400687 0.225807 1.111729
0.613819 0.209525 1.108728
0.826950 0.193243 1.105728
1.040081 0.176961 1.102728
1.253213 0.160679 1.099727
1.466344 0.144396 1.096727
-0.316431 0.417253 1.104609
-0.103300 0.400971 1.101609
0.109832 0.384689 1.098608
0.322963 0.368407 1.095608
0.536095 0.352125 1.092607
0.749226 0.335843 1.089607
0.962357 0.319561 1.086607
1.175489 0.303279 1.083606
1.388620 0.286997 1.080606
-0.394155 0.559854 1.088488
-0.181024 0.543572 1.085487
0.032108 0.527290 1.082487
0.245239 0.511008 1.079487
0.458371 0.494726 1.076486
0.671502 0.478444 1.073486
0.884633 0.462162 1.070485
1.097765 0.445880 1.067485
1.310896 0.429598 1.064484
-0.471879 0.702455 1.072367
-0.258748 0.686173 1.069366
-0.045616 0.669891 1.066366
0.167515 0.653609 1.063365
0.380647 0.637326 1.060365
0.593778 0.621044 1.057365
0.806909 0.604762 1.054364
1.020041 0.588480 1.051364
1.233172 0.572198 1.048363
-0.549603 0.845055 1.056246
-0.336472 0.828773 1.053245
-0.123340 0.812491 1.050245
0.089791 0.796209 1.047244
0.302922 0.779927 1.044244
0.516054 0.763645 1.041244
0.729185 0.747363 1.038243
0.942317 0.731081 1.035243
1.155448 0.714799 1.032242
-0.627327 0.987656 1.040125
-0.414196 0.971374 1.037124
-0.201064 0.955092 1.034124
0.012067 0.938810 1.031123
0.225199 0.922528 1.028123
0.438330 0.906246 1.025122
0.651461 0.889964 1.022122
0.864593 0.873681 1.019122
1.077724 0.857399 1.016121
-0.705051 1.130256 1.024003
-0.491920 1.113974 1.021003
-0.278788 1.097692 1.018003
-0.065657 1.081410 1.015002
0.147474 1.065128 1.012002
0.360606 1.048846 1.009001
0.573737 1.032564 1.006001
0.786869 1.016282 1.003000
1.000000 1.000000 1.000000
