Astral-Runtime/Renderer/Assets/LUTs/acescg_to_rec709_linear_no_shaper.cube
LUT_3D_SIZE 5
0.000000 0.000000 0.000000
0.426263 -0.032564 -0.006001
0.852525 -0.065128 -0.012002
1.278788 -0.097692 -0.018003
1.705051 -0.130256 -0.024003
-0.155448 0.285201 -0.032242
0.270815 0.252637 -0.038243
0.697077 0.220073 -0.044244
1.123340 0.187509 -0.050245
1.549603 0.154945 -0.056246
-0.310896 0.570402 -0.064484
0.115367 0.537838 -0.070485
0.541629 0.505274 -0.076486
0.967892 0.472710 -0.082487
1.394155 0.440146 -0.088488
-0.466344 0.855604 -0.096727
-0.040081 0.823039 -0.102728
0.386181 0.790475 -0.108728
0.812444 0.757911 -0.114729
1.238707 0.725347 -0.120730
-0.621792 1.140805 -0.128969
-0.195529 1.108241 -0.134970
0.230733 1.075677 -0.140971
0.656996 1.043113 -0.146971
1.083259 1.010548 -0.152972
-0.020815 -0.002637 0.288243
0.405448 -0.035201 0.282242
0.831711 -0.067765 0.276241
1.257973 -0.100329 0.270241
1.684236 -0.132893 0.264240
-0.176263 0.282564 0.256001
0.250000 0.250000 0.250000
0.676263 0.217436 0.243999
1.102525 0.184872 0.237998
1.528788 0.152308 0.231997
-0.331711 0.567765 0.223759
0.094552 0.535201 0.217758
0.520815 0.502637 0.211757
0.947077 0.470073 0.205756
1.373340 0.437509 0.199755
-0.487159 0.852966 0.191516
-0.060896 0.820402 0.185516
0.365367 0.787838 0.179515
0.791629 0.755274 0.173514
1.217892 0.722710 0.167513
-0.642607 1.138168 0.159274
-0.216344 1.105604 0.153273
0.209919 1.073040 0.147272
0.636181 1.040475 0.141272
1.062444 1.007911 0.135271
-0.041629 -0.005274 0.576486
0.384633 -0.037838 0.570485
0.810896 -0.070402 0.564484
1.237159 -0.102966 0.558484
1.663422 -0.135531 0.552483
-0.197077 0.279927 0.544244
0.229185 0.247363 0.538243
0.655448 0.214799 0.532242
1.081711 0.182235 0.526241
1.507973 0.149671 0.520241
-0.352526 0.565128 0.512002
0.073737 0.532564 0.506001
0.500000 0.500000 0.500000
0.926263 0.467436 0.493999
1.352525 0.434872 0.487998
-0.507974 0.850329 0.479759
-0.081711 0.817765 0.473759
0.344552 0.785201 0.467758
0.770815 0.752637 0.461757
1.197077 0.720073 0.455756
-0.663422 1.135531 0.447517
-0.237159 1.102966 0.441516
0.189104 1.070402 0.435516
0.615367 1.037838 0.429515
1.041629 1.005274 0.423514
-0.062444 -0.007911 0.864729
0.363819 -0.040475 0.858728
0.790081 -0.073039 0.852728
1.216344 -0.105604 0.846727
1.642607 -0.138168 0.840726
-0.217892 0.277290 0.832487
0.208371 0.244726 0.826486
0.634633 0.212162 0.820485
1.060896 0.179598 0.814485
1.487159 0.147034 0.808484
-0.373340 0.562491 0.800245
0.052923 0.529927 0.794244
0.479185 0.497363 0.788243
0.905448 0.464799 0.782242
1.331711 0.432235 0.776241
-0.528788 0.847692 0.768003
-0.102526 0.815128 0.762002
0.323737 0.782564 0.756001
0.750000 0.750000 0.750000
1.176263 0.717436 0.743999
-0.684236 1.132894 0.735760
-0.257974 1.100329 0.729759
0.168289 1.067765 0.723759
0.594552 1.035201 0.717758
1.020815 1.002637 0.711757
-0.083259 -0.010548 1.152972
0.343004 -0.043112 1.146971
0.769267 -0.075677 1.140971
1.195529 -0.108241 1.134970
1.621792 -0.140805 1.128969
-0.238707 0.274653 1.120730
0.187556 0.242089 1.114729
0.613819 0.209525 1.108728
1.040081 0.176961 1.102728
1.466344 0.144396 1.096727
-0.394155 0.559854 1.088488
0.032108 0.527290 1.082487
0.458371 0.494726 1.076486
0.884633 0.462162 1.070485
1.310896 0.429598 1.064484
-0.549603 0.845055 1.056246
-0.123340 0.812491 1.050245
0.302922 0.779927 1.044244
0.729185 0.747363 1.038243
1.155448 0.714799 1.032242
-0.705051 1.130256 1.024003
-0.278788 1.097692 1.018003
0.147474 1.065128 1.012002
0.573737 1.032564 1.006001
1.000000 1.000000 1.000000
