Astral-Runtime/Renderer/Assets/LUTs/rec709_linear_to_acescg.cube
LUT_1D_SIZE 4096
LUT_1D_INPUT_RANGE 0.000000 1.000000
LUT_3D_SIZE 33
0.000000 0.000000 0.000000
0.000244 0.000244 0.000244
0.000488 0.000488 0.000488
0.000733 0.000733 0.000733
0.000977 0.000977 0.000977
0.001221 0.001221 0.001221
0.001465 0.001465 0.001465
0.001709 0.001709 0.001709
0.001954 0.001954 0.001954
0.002198 0.002198 0.002198
0.002442 0.002442 0.002442
0.002686 0.002686 0.002686
0.002930 0.002930 0.002930
0.003175 0.003175 0.003175
0.003419 0.003419 0.003419
0.003663 0.003663 0.003663
0.003907 0.003907 0.003907
0.004151 0.004151 0.004151
0.004396 0.004396 0.004396
0.004640 0.004640 0.004640
0.004884 0.004884 0.004884
0.005128 0.005128 0.005128
0.005372 0.005372 0.005372
0.005617 0.005617 0.005617
0.005861 0.005861 0.005861
0.006105 0.006105 0.006105
0.006349 0.006349 0.006349
0.006593 0.006593 0.006593
0.006838 0.006838 0.006838
0.007082 0.007082 0.007082
0.007326 0.007326 0.007326
0.007570 0.007570 0.007570
0.007814 0.007814 0.007814
0.008059 0.008059 0.008059
0.008303 0.008303 0.008303
0.008547 0.008547 0.008547
0.008791 0.008791 0.008791
0.009035 0.009035 0.009035
0.009280 0.009280 0.009280
0.009524 0.009524 0.009524
0.009768 0.009768 0.009768
0.010012 0.010012 0.010012
0.010256 0.010256 0.010256
0.010501 0.010501 0.010501
0.010745 0.010745 0.010745
0.010989 0.010989 0.010989
0.011233 0.011233 0.011233
0.011477 0.011477 0.011477
0.011722 0.011722 0.011722
0.011966 0.011966 0.011966
0.012210 0.012210 0.012210
0.012454 0.012454 0.012454
0.012698 0.012698 0.012698
0.012943 0.012943 0.012943
0.013187 0.013187 0.013187
0.013431 0.013431 0.013431
0.013675 0.013675 0.013675
0.013919 0.013919 0.013919
0.014164 0.014164 0.014164
0.014408 0.014408 0.014408
0.014652 0.014652 0.014652
0.014896 0.014896 0.014896
0.015140 0.015140 0.015140
0.015385 0.015385 0.015385
0.015629 0.015629 0.015629
0.015873 0.015873 0.015873
0.016117 0.016117 0.016117
0.016361 0.016361 0.016361
0.016606 0.016606 0.016606
0.016850 0.016850 0.016850
0.017094 0.017094 0.017094
0.017338 0.017338 0.017338
0.017582 0.017582 0.017582
0.017827 0.017827 0.017827
0.018071 0.018071 0.018071
0.018315 0.018315 0.018315
0.018559 0.018559 0.018559
0.018803 0.018803 0.018803
0.019048 0.019048 0.019048
0.019292 0.019292 0.019292
0.019536 0.019536 0.019536
0.019780 0.019780 0.019780
0.020024 0.020024 0.020024
0.020269 0.020269 0.020269
0.020513 0.020513 0.020513
0.020757 0.020757 0.020757
0.021001 0.021001 0.021001
0.021245 0.021245 0.021245
0.021490 0.021490 0.021490
0.021734 0.021734 0.021734
0.021978 0.021978 0.021978
0.022222 0.022222 0.022222
0.022466 0.022466 0.022466
0.022711 0.022711 0.022711
0.022955 0.022955 0.022955
0.023199 0.023199 0.023199
0.023443 0.023443 0.023443
0.023687 0.023687 0.023687
0.023932 0.023932 0.023932
0.024176 0.024176 0.024176
0.024420 0.024420 0.024420
0.024664 0.024664 0.024664
0.024908 0.024908 0.024908
0.025153 0.025153 0.025153
0.025397 0.025397 0.025397
0.025641 0.025641 0.025641
0.025885 0.025885 0.025885
0.026129 0.026129 0.026129
0.026374 0.026374 0.026374
0.026618 0.026618 0.026618
0.026862 0.026862 0.026862
0.027106 0.027106 0.027106
0.027350 0.027350 0.027350
0.027595 0.027595 0.027595
0.027839 0.027839 0.027839
0.028083 0.028083 0.028083
0.028327 0.028327 0.028327
0.028571 0.028571 0.028571
0.028816 0.028816 0.028816
0.029060 0.029060 0.029060
0.029304 0.029304 0.029304
0.029548 0.029548 0.029548
0.029792 0.029792 0.029792
0.030037 0.030037 0.030037
0.030281 0.030281 0.030281
0.030525 0.030525 0.030525
0.030769 0.030769 0.030769
0.031013 0.031013 0.031013
0.031258 0.031258 0.031258
0.031502 0.031502 0.031502
0.031746 0.031746 0.031746
0.031990 0.031990 0.031990
0.032234 0.032234 0.032234
0.032479 0.032479 0.032479
0.032723 0.032723 0.032723
0.032967 0.032967 0.032967
0.033211 0.033211 0.033211
0.033455 0.033455 0.033455
0.033700 0.033700 0.033700
0.033944 0.033944 0.033944
0.034188 0.034188 0.034188
0.034432 0.034432 0.034432
0.034676 0.034676 0.034676
0.034921 0.034921 0.034921
0.035165 0.035165 0.035165
0.035409 0.035409 0.035409
0.035653 0.035653 0.035653
0.035897 0.035897 0.035897
0.036142 0.036142 0.036142
0.036386 0.036386 0.036386
0.036630 0.036630 0.036630
0.036874 0.036874 0.036874
0.037118 0.037118 0.037118
0.037363 0.037363 0.037363
0.037607 0.037607 0.037607
0.037851 0.037851 0.037851
0.038095 0.038095 0.038095
0.038339 0.038339 0.038339
0.038584 0.038584 0.038584
0.038828 0.038828 0.038828
0.039072 0.039072 0.039072
0.039316 0.039316 0.039316
0.039560 0.039560 0.039560
0.039805 0.039805 0.039805
0.040049 0.040049 0.040049
0.040293 0.040293 0.040293
0.040537 0.040537 0.040537
0.040781 0.040781 0.040781
0.041026 0.041026 0.041026
0.041270 0.041270 0.041270
0.041514 0.041514 0.041514
0.041758 0.041758 0.041758
0.042002 0.042002 0.042002
0.042247 0.042247 0.042247
0.042491 0.042491 0.042491
0.042735 0.042735 0.042735
0.042979 0.042979 0.042979
0.043223 0.043223 0.043223
0.043468 0.043468 0.043468
0.043712 0.043712 0.043712
0.043956 0.043956 0.043956
0.044200 0.044200 0.044200
0.044444 0.044444 0.044444
0.044689 0.044689 0.044689
0.044933 0.044933 0.044933
0.045177 0.045177 0.045177
0.045421 0.045421 0.045421
0.045665 0.045665 0.045665
0.045910 0.045910 0.045910
0.046154 0.046154 0.046154
0.046398 0.046398 0.046398
0.046642 0.046642 0.046642
0.046886 0.046886 0.046886
0.047131 0.047131 0.047131
0.047375 0.047375 0.047375
0.047619 0.047619 0.047619
0.047863 0.047863 0.047863
0.048107 0.048107 0.048107
0.048352 0.048352 0.048352
0.048596 0.048596 0.048596
0.048840 0.048840 0.048840
0.049084 0.049084 0.049084
0.049328 0.049328 0.049328
0.049573 0.049573 0.049573
0.049817 0.049817 0.049817
0.050061 0.050061 0.050061
0.050305 0.050305 0.050305
0.050549 0.050549 0.050549
0.050794 0.050794 0.050794
0.051038 0.051038 0.051038
0.051282 0.051282 0.051282
0.051526 0.051526 0.051526
0.051770 0.051770 0.051770
0.052015 0.052015 0.052015
0.052259 0.052259 0.052259
0.052503 0.052503 0.052503
0.052747 0.052747 0.052747
0.052991 0.052991 0.052991
0.053236 0.053236 0.053236
0.053480 0.053480 0.053480
0.053724 0.053724 0.053724
0.053968 0.053968 0.053968
0.054212 0.054212 0.054212
0.054457 0.054457 0.054457
0.054701 0.054701 0.054701
0.054945 0.054945 0.054945
0.055189 0.055189 0.055189
0.055433 0.055433 0.055433
0.055678 0.055678 0.055678
0.055922 0.055922 0.055922
0.056166 0.056166 0.056166
0.056410 0.056410 0.056410
0.056654 0.056654 0.056654
0.056899 0.056899 0.056899
0.057143 0.057143 0.057143
0.057387 0.057387 0.057387
0.057631 0.057631 0.057631
0.057875 0.057875 0.057875
0.058120 0.058120 0.058120
0.058364 0.058364 0.058364
0.058608 0.058608 0.058608
0.058852 0.058852 0.058852
0.059096 0.059096 0.059096
0.059341 0.059341 0.059341
0.059585 0.059585 0.059585
0.059829 0.059829 0.059829
0.060073 0.060073 0.060073
0.060317 0.060317 0.060317
0.060562 0.060562 0.060562
0.060806 0.060806 0.060806
0.061050 0.061050 0.061050
0.061294 0.061294 0.061294
0.061538 0.061538 0.061538
0.061783 0.061783 0.061783
0.062027 0.062027 0.062027
0.062271 0.062271 0.062271
0.062515 0.062515 0.062515
0.062759 0.062759 0.062759
0.063004 0.063004 0.063004
0.063248 0.063248 0.063248
0.063492 0.063492 0.063492
0.063736 0.063736 0.063736
0.063980 0.063980 0.063980
0.064225 0.064225 0.064225
0.064469 0.064469 0.064469
0.064713 0.064713 0.064713
0.064957 0.064957 0.064957
0.065201 0.065201 0.065201
0.065446 0.065446 0.065446
0.065690 0.065690 0.065690
0.065934 0.065934 0.065934
0.066178 0.066178 0.066178
0.066422 0.066422 0.066422
0.066667 0.066667 0.066667
0.066911 0.066911 0.066911
0.067155 0.067155 0.067155
0.067399 0.067399 0.067399
0.067643 0.067643 0.067643
0.067888 0.067888 0.067888
0.068132 0.068132 0.068132
0.068376 0.068376 0.068376
0.068620 0.068620 0.068620
0.068864 0.068864 0.068864
0.069109 0.069109 0.069109
0.069353 0.069353 0.069353
0.069597 0.069597 0.069597
0.069841 0.069841 0.069841
0.070085 0.070085 0.070085
0.070330 0.070330 0.070330
0.070574 0.070574 0.070574
0.070818 0.070818 0.070818
0.071062 0.071062 0.071062
0.071306 0.071306 0.071306
0.071551 0.071551 0.071551
0.071795 0.071795 0.071795
0.072039 0.072039 0.072039
0.072283 0.072283 0.072283
0.072527 0.072527 0.072527
0.072772 0.072772 0.072772
0.073016 0.073016 0.073016
0.073260 0.073260 0.073260
0.073504 0.073504 0.073504
0.073748 0.073748 0.073748
0.073993 0.073993 0.073993
0.074237 0.074237 0.074237
0.074481 0.074481 0.074481
0.074725 0.074725 0.074725
0.074969 0.074969 0.074969
0.075214 0.075214 0.075214
0.075458 0.075458 0.075458
0.075702 0.075702 0.075702
0.075946 0.075946 0.075946
0.076190 0.076190 0.076190
0.076435 0.076435 0.076435
0.076679 0.076679 0.076679
0.076923 0.076923 0.076923
0.077167 0.077167 0.077167
0.077411 0.077411 0.077411
0.077656 0.077656 0.077656
0.077900 0.077900 0.077900
0.078144 0.078144 0.078144
0.078388 0.078388 0.078388
0.078632 0.078632 0.078632
0.078877 0.078877 0.078877
0.079121 0.079121 0.079121
0.079365 0.079365 0.079365
0.079609 0.079609 0.079609
0.079853 0.079853 0.079853
0.080098 0.080098 0.080098
0.080342 0.080342 0.080342
0.080586 0.080586 0.080586
0.080830 0.080830 0.080830
0.081074 0.081074 0.081074
0.081319 0.081319 0.081319
0.081563 0.081563 0.081563
0.081807 0.081807 0.081807
0.082051 0.082051 0.082051
0.082295 0.082295 0.082295
0.082540 0.082540 0.082540
0.082784 0.082784 0.082784
0.083028 0.083028 0.083028
0.083272 0.083272 0.083272
0.083516 0.083516 0.083516
0.083761 0.083761 0.083761
0.084005 0.084005 0.084005
0.084249 0.084249 0.084249
0.084493 0.084493 0.084493
0.084737 0.084737 0.084737
0.084982 0.084982 0.084982
0.085226 0.085226 0.085226
0.085470 0.085470 0.085470
0.085714 0.085714 0.085714
0.085958 0.085958 0.085958
0.086203 0.086203 0.086203
0.086447 0.086447 0.086447
0.086691 0.086691 0.086691
0.086935 0.086935 0.086935
0.087179 0.087179 0.087179
0.087424 0.087424 0.087424
0.087668 0.087668 0.087668
0.087912 0.087912 0.087912
0.088156 0.088156 0.088156
0.088400 0.088400 0.088400
0.088645 0.088645 0.088645
0.088889 0.088889 0.088889
0.089133 0.089133 0.089133
0.089377 0.089377 0.089377
0.089621 0.089621 0.089621
0.089866 0.089866 0.089866
0.090110 0.090110 0.090110
0.090354 0.090354 0.090354
0.090598 0.090598 0.090598
0.090842 0.090842 0.090842
0.091087 0.091087 0.091087
0.091331 0.091331 0.091331
0.091575 0.091575 0.091575
0.091819 0.091819 0.091819
0.092063 0.092063 0.092063
0.092308 0.092308 0.092308
0.092552 0.092552 0.092552
0.092796 0.092796 0.092796
0.093040 0.093040 0.093040
0.093284 0.093284 0.093284
0.093529 0.093529 0.093529
0.093773 0.093773 0.093773
0.094017 0.094017 0.094017
0.094261 0.094261 0.094261
0.094505 0.094505 0.094505
0.094750 0.094750 0.094750
0.094994 0.094994 0.094994
0.095238 0.095238 0.095238
0.095482 0.095482 0.095482
0.095726 0.095726 0.095726
0.095971 0.095971 0.095971
0.096215 0.096215 0.096215
0.096459 0.096459 0.096459
0.096703 0.096703 0.096703
0.096947 0.096947 0.096947
0.097192 0.097192 0.097192
0.097436 0.097436 0.097436
0.097680 0.097680 0.097680
0.097924 0.097924 0.097924
0.098168 0.098168 0.098168
0.098413 0.098413 0.098413
0.098657 0.098657 0.098657
0.098901 0.098901 0.098901
0.099145 0.099145 0.099145
0.099390 0.099390 0.099390
0.099634 0.099634 0.099634
0.099878 0.099878 0.099878
0.100122 0.100122 0.100122
0.100366 0.100366 0.100366
0.100611 0.100611 0.100611
0.100855 0.100855 0.100855
0.101099 0.101099 0.101099
0.101343 0.101343 0.101343
0.101587 0.101587 0.101587
0.101832 0.101832 0.101832
0.102076 0.102076 0.102076
0.102320 0.102320 0.102320
0.102564 0.102564 0.102564
0.102808 0.102808 0.102808
0.103053 0.103053 0.103053
0.103297 0.103297 0.103297
0.103541 0.103541 0.103541
0.103785 0.103785 0.103785
0.104029 0.104029 0.104029
0.104274 0.104274 0.104274
0.104518 0.104518 0.104518
0.104762 0.104762 0.104762
0.105006 0.105006 0.105006
0.105250 0.105250 0.105250
0.105495 0.105495 0.105495
0.105739 0.105739 0.105739
0.105983 0.105983 0.105983
0.106227 0.106227 0.106227
0.106471 0.106471 0.106471
0.106716 0.106716 0.106716
0.106960 0.106960 0.106960
0.107204 0.107204 0.107204
0.107448 0.107448 0.107448
0.107692 0.107692 0.107692
0.107937 0.107937 0.107937
0.108181 0.108181 0.108181
0.108425 0.108425 0.108425
0.108669 0.108669 0.108669
0.108913 0.108913 0.108913
0.109158 0.109158 0.109158
0.109402 0.109402 0.109402
0.109646 0.109646 0.109646
0.109890 0.109890 0.109890
0.110134 0.110134 0.110134
0.110379 0.110379 0.110379
0.110623 0.110623 0.110623
0.110867 0.110867 0.110867
0.111111 0.111111 0.111111
0.111355 0.111355 0.111355
0.111600 0.111600 0.111600
0.111844 0.111844 0.111844
0.112088 0.112088 0.112088
0.112332 0.112332 0.112332
0.112576 0.112576 0.112576
0.112821 0.112821 0.112821
0.113065 0.113065 0.113065
0.113309 0.113309 0.113309
0.113553 0.113553 0.113553
0.113797 0.113797 0.113797
0.114042 0.114042 0.114042
0.114286 0.114286 0.114286
0.114530 0.114530 0.114530
0.114774 0.114774 0.114774
0.115018 0.115018 0.115018
0.115263 0.115263 0.115263
0.115507 0.115507 0.115507
0.115751 0.115751 0.115751
0.115995 0.115995 0.115995
0.116239 0.116239 0.116239
0.116484 0.116484 0.116484
0.116728 0.116728 0.116728
0.116972 0.116972 0.116972
0.117216 0.117216 0.117216
0.117460 0.117460 0.117460
0.117705 0.117705 0.117705
0.117949 0.117949 0.117949
0.118193 0.118193 0.118193
0.118437 0.118437 0.118437
0.118681 0.118681 0.118681
0.118926 0.118926 0.118926
0.119170 0.119170 0.119170
0.119414 0.119414 0.119414
0.119658 0.119658 0.119658
0.119902 0.119902 0.119902
0.120147 0.120147 0.120147
0.120391 0.120391 0.120391
0.120635 0.120635 0.120635
0.120879 0.120879 0.120879
0.121123 0.121123 0.121123
0.121368 0.121368 0.121368
0.121612 0.121612 0.121612
0.121856 0.121856 0.121856
0.122100 0.122100 0.122100
0.122344 0.122344 0.122344
0.122589 0.122589 0.122589
0.122833 0.122833 0.122833
0.123077 0.123077 0.123077
0.123321 0.123321 0.123321
0.123565 0.123565 0.123565
0.123810 0.123810 0.123810
0.124054 0.124054 0.124054
0.124298 0.124298 0.124298
0.124542 0.124542 0.124542
0.124786 0.124786 0.124786
0.125031 0.125031 0.125031
0.125275 0.125275 0.125275
0.125519 0.125519 0.125519
0.125763 0.125763 0.125763
0.126007 0.126007 0.126007
0.126252 0.126252 0.126252
0.126496 0.126496 0.126496
0.126740 0.126740 0.126740
0.126984 0.126984 0.126984
0.127228 0.127228 0.127228
0.127473 0.127473 0.127473
0.127717 0.127717 0.127717
0.127961 0.127961 0.127961
0.128205 0.128205 0.128205
0.128449 0.128449 0.128449
0.128694 0.128694 0.128694
0.128938 0.128938 0.128938
0.129182 0.129182 0.129182
0.129426 0.129426 0.129426
0.129670 0.129670 0.129670
0.129915 0.129915 0.129915
0.130159 0.130159 0.130159
0.130403 0.130403 0.130403
0.130647 0.130647 0.130647
0.130891 0.130891 0.130891
0.131136 0.131136 0.131136
0.131380 0.131380 0.131380
0.131624 0.131624 0.131624
0.131868 0.131868 0.131868
0.132112 0.132112 0.132112
0.132357 0.132357 0.132357
0.132601 0.132601 0.132601
0.132845 0.132845 0.132845
0.133089 0.133089 0.133089
0.133333 0.133333 0.133333
0.133578 0.133578 0.133578
0.133822 0.133822 0.133822
0.134066 0.134066 0.134066
0.134310 0.134310 0.134310
0.134554 0.134554 0.134554
0.134799 0.134799 0.134799
0.135043 0.135043 0.135043
0.135287 0.135287 0.135287
0.135531 0.135531 0.135531
0.135775 0.135775 0.135775
0.136020 0.136020 0.136020
0.136264 0.136264 0.136264
0.136508 0.136508 0.136508
0.136752 0.136752 0.136752
0.136996 0.136996 0.136996
0.137241 0.137241 0.137241
0.137485 0.137485 0.137485
0.137729 0.137729 0.137729
0.137973 0.137973 0.137973
0.138217 0.138217 0.138217
0.138462 0.138462 0.138462
0.138706 0.138706 0.138706
0.138950 0.138950 0.138950
0.139194 0.139194 0.139194
0.139438 0.139438 0.139438
0.139683 0.139683 0.139683
0.139927 0.139927 0.139927
0.140171 0.140171 0.140171
0.140415 0.140415 0.140415
0.140659 0.140659 0.140659
0.140904 0.140904 0.140904
0.141148 0.141148 0.141148
0.141392 0.141392 0.141392
0.141636 0.141636 0.141636
0.141880 0.141880 0.141880
0.142125 0.142125 0.142125
0.142369 0.142369 0.142369
0.142613 0.142613 0.142613
0.142857 0.142857 0.142857
0.143101 0.143101 0.143101
0.143346 0.143346 0.143346
0.143590 0.143590 0.143590
0.143834 0.143834 0.143834
0.144078 0.144078 0.144078
0.144322 0.144322 0.144322
0.144567 0.144567 0.144567
0.144811 0.144811 0.144811
0.145055 0.145055 0.145055
0.145299 0.145299 0.145299
0.145543 0.145543 0.145543
0.145788 0.145788 0.145788
0.146032 0.146032 0.146032
0.146276 0.146276 0.146276
0.146520 0.146520 0.146520
0.146764 0.146764 0.146764
0.147009 0.147009 0.147009
0.147253 0.147253 0.147253
0.147497 0.147497 0.147497
0.147741 0.147741 0.147741
0.147985 0.147985 0.147985
0.148230 0.148230 0.148230
0.148474 0.148474 0.148474
0.148718 0.148718 0.148718
0.148962 0.148962 0.148962
0.149206 0.149206 0.149206
0.149451 0.149451 0.149451
0.149695 0.149695 0.149695
0.149939 0.149939 0.149939
0.150183 0.150183 0.150183
0.150427 0.150427 0.150427
0.150672 0.150672 0.150672
0.150916 0.150916 0.150916
0.151160 0.151160 0.151160
0.151404 0.151404 0.151404
0.151648 0.151648 0.151648
0.151893 0.151893 0.151893
0.152137 0.152137 0.152137
0.152381 0.152381 0.152381
0.152625 0.152625 0.152625
0.152869 0.152869 0.152869
0.153114 0.153114 0.153114
0.153358 0.153358 0.153358
0.153602 0.153602 0.153602
0.153846 0.153846 0.153846
0.154090 0.154090 0.154090
0.154335 0.154335 0.154335
0.154579 0.154579 0.154579
0.154823 0.154823 0.154823
0.155067 0.155067 0.155067
0.155311 0.155311 0.155311
0.155556 0.155556 0.155556
0.155800 0.155800 0.155800
0.156044 0.156044 0.156044
0.156288 0.156288 0.156288
0.156532 0.156532 0.156532
0.156777 0.156777 0.156777
0.157021 0.157021 0.157021
0.157265 0.157265 0.157265
0.157509 0.157509 0.157509
0.157753 0.157753 0.157753
0.157998 0.157998 0.157998
0.158242 0.158242 0.158242
0.158486 0.158486 0.158486
0.158730 0.158730 0.158730
0.158974 0.158974 0.158974
0.159219 0.159219 0.159219
0.159463 0.159463 0.159463
0.159707 0.159707 0.159707
0.159951 0.159951 0.159951
0.160195 0.160195 0.160195
0.160440 0.160440 0.160440
0.160684 0.160684 0.160684
0.160928 0.160928 0.160928
0.161172 0.161172 0.161172
0.161416 0.161416 0.161416
0.161661 0.161661 0.161661
0.161905 0.161905 0.161905
0.162149 0.162149 0.162149
0.162393 0.162393 0.162393
0.162637 0.162637 0.162637
0.162882 0.162882 0.162882
0.163126 0.163126 0.163126
0.163370 0.163370 0.163370
0.163614 0.163614 0.163614
0.163858 0.163858 0.163858
0.164103 0.164103 0.164103
0.164347 0.164347 0.164347
0.164591 0.164591 0.164591
0.164835 0.164835 0.164835
0.165079 0.165079 0.165079
0.165324 0.165324 0.165324
0.165568 0.165568 0.165568
0.165812 0.165812 0.165812
0.166056 0.166056 0.166056
0.166300 0.166300 0.166300
0.166545 0.166545 0.166545
0.166789 0.166789 0.166789
0.167033 0.167033 0.167033
0.167277 0.167277 0.167277
0.167521 0.167521 0.167521
0.167766 0.167766 0.167766
0.168010 0.168010 0.168010
0.168254 0.168254 0.168254
0.168498 0.168498 0.168498
0.168742 0.168742 0.168742
0.168987 0.168987 0.168987
0.169231 0.169231 0.169231
0.169475 0.169475 0.169475
0.169719 0.169719 0.169719
0.169963 0.169963 0.169963
0.170208 0.170208 0.170208
0.170452 0.170452 0.170452
0.170696 0.170696 0.170696
0.170940 0.170940 0.170940
0.171184 0.171184 0.171184
0.171429 0.171429 0.171429
0.171673 0.171673 0.171673
0.171917 0.171917 0.171917
0.172161 0.172161 0.172161
0.172405 0.172405 0.172405
0.172650 0.172650 0.172650
0.172894 0.172894 0.172894
0.173138 0.173138 0.173138
0.173382 0.173382 0.173382
0.173626 0.173626 0.173626
0.173871 0.173871 0.173871
0.174115 0.174115 0.174115
0.174359 0.174359 0.174359
0.174603 0.174603 0.174603
0.174847 0.174847 0.174847
0.175092 0.175092 0.175092
0.175336 0.175336 0.175336
0.175580 0.175580 0.175580
0.175824 0.175824 0.175824
0.176068 0.176068 0.176068
0.176313 0.176313 0.176313
0.176557 0.176557 0.176557
0.176801 0.176801 0.176801
0.177045 0.177045 0.177045
0.177289 0.177289 0.177289
0.177534 0.177534 0.177534
0.177778 0.177778 0.177778
0.178022 0.178022 0.178022
0.178266 0.178266 0.178266
0.178510 0.178510 0.178510
0.178755 0.178755 0.178755
0.178999 0.178999 0.178999
0.179243 0.179243 0.179243
0.179487 0.179487 0.179487
0.179731 0.179731 0.179731
0.179976 0.179976 0.179976
0.180220 0.180220 0.180220
0.180464 0.180464 0.180464
0.180708 0.180708 0.180708
0.180952 0.180952 0.180952
0.181197 0.181197 0.181197
0.181441 0.181441 0.181441
0.181685 0.181685 0.181685
0.181929 0.181929 0.181929
0.182173 0.182173 0.182173
0.182418 0.182418 0.182418
0.182662 0.182662 0.182662
0.182906 0.182906 0.182906
0.183150 0.183150 0.183150
0.183394 0.183394 0.183394
0.183639 0.183639 0.183639
0.183883 0.183883 0.183883
0.184127 0.184127 0.184127
0.184371 0.184371 0.184371
0.184615 0.184615 0.184615
0.184860 0.184860 0.184860
0.185104 0.185104 0.185104
0.185348 0.185348 0.185348
0.185592 0.185592 0.185592
0.185836 0.185836 0.185836
0.186081 0.186081 0.186081
0.186325 0.186325 0.186325
0.186569 0.186569 0.186569
0.186813 0.186813 0.186813
0.187057 0.187057 0.187057
0.187302 0.187302 0.187302
0.187546 0.187546 0.187546
0.187790 0.187790 0.187790
0.188034 0.188034 0.188034
0.188278 0.188278 0.188278
0.188523 0.188523 0.188523
0.188767 0.188767 0.188767
0.189011 0.189011 0.189011
0.189255 0.189255 0.189255
0.189499 0.189499 0.189499
0.189744 0.189744 0.189744
0.189988 0.189988 0.189988
0.190232 0.190232 0.190232
0.190476 0.190476 0.190476
0.190720 0.190720 0.190720
0.190965 0.190965 0.190965
0.191209 0.191209 0.191209
0.191453 0.191453 0.191453
0.191697 0.191697 0.191697
0.191941 0.191941 0.191941
0.192186 0.192186 0.192186
0.192430 0.192430 0.192430
0.192674 0.192674 0.192674
0.192918 0.192918 0.192918
0.193162 0.193162 0.193162
0.193407 0.193407 0.193407
0.193651 0.193651 0.193651
0.193895 0.193895 0.193895
0.194139 0.194139 0.194139
0.194383 0.194383 0.194383
0.194628 0.194628 0.194628
0.194872 0.194872 0.194872
0.195116 0.195116 0.195116
0.195360 0.195360 0.195360
0.195604 0.195604 0.195604
0.195849 0.195849 0.195849
0.196093 0.196093 0.196093
0.196337 0.196337 0.196337
0.196581 0.196581 0.196581
0.196825 0.196825 0.196825
0.197070 0.197070 0.197070
0.197314 0.197314 0.197314
0.197558 0.197558 0.197558
0.197802 0.197802 0.197802
0.198046 0.198046 0.198046
0.198291 0.198291 0.198291
0.198535 0.198535 0.198535
0.198779 0.198779 0.198779
0.199023 0.199023 0.199023
0.199267 0.199267 0.199267
0.199512 0.199512 0.199512
0.199756 0.199756 0.199756
0.200000 0.200000 0.200000
0.200244 0.200244 0.200244
0.200488 0.200488 0.200488
0.200733 0.200733 0.200733
0.200977 0.200977 0.200977
0.201221 0.201221 0.201221
0.201465 0.201465 0.201465
0.201709 0.201709 0.201709
0.201954 0.201954 0.201954
0.202198 0.202198 0.202198
0.202442 0.202442 0.202442
0.202686 0.202686 0.202686
0.202930 0.202930 0.202930
0.203175 0.203175 0.203175
0.203419 0.203419 0.203419
0.203663 0.203663 0.203663
0.203907 0.203907 0.203907
0.204151 0.204151 0.204151
0.204396 0.204396 0.204396
0.204640 0.204640 0.204640
0.204884 0.204884 0.204884
0.205128 0.205128 0.205128
0.205372 0.205372 0.205372
0.205617 0.205617 0.205617
0.205861 0.205861 0.205861
0.206105 0.206105 0.206105
0.206349 0.206349 0.206349
0.206593 0.206593 0.206593
0.206838 0.206838 0.206838
0.207082 0.207082 0.207082
0.207326 0.207326 0.207326
0.207570 0.207570 0.207570
0.207814 0.207814 0.207814
0.208059 0.208059 0.208059
0.208303 0.208303 0.208303
0.208547 0.208547 0.208547
0.208791 0.208791 0.208791
0.209035 0.209035 0.209035
0.209280 0.209280 0.209280
0.209524 0.209524 0.209524
0.209768 0.209768 0.209768
0.210012 0.210012 0.210012
0.210256 0.210256 0.210256
0.210501 0.210501 0.210501
0.210745 0.210745 0.210745
0.210989 0.210989 0.210989
0.211233 0.211233 0.211233
0.211477 0.211477 0.211477
0.211722 0.211722 0.211722
0.211966 0.211966 0.211966
0.212210 0.212210 0.212210
0.212454 0.212454 0.212454
0.212698 0.212698 0.212698
0.212943 0.212943 0.212943
0.213187 0.213187 0.213187
0.213431 0.213431 0.213431
0.213675 0.213675 0.213675
0.213919 0.213919 0.213919
0.214164 0.214164 0.214164
0.214408 0.214408 0.214408
0.214652 0.214652 0.214652
0.214896 0.214896 0.214896
0.215140 0.215140 0.215140
0.215385 0.215385 0.215385
0.215629 0.215629 0.215629
0.215873 0.215873 0.215873
0.216117 0.216117 0.216117
