Astral-Runtime/Renderer/Assets/acescg_to_rec709_linear.cube
LUT_1D_SIZE 4096
LUT_1D_INPUT_RANGE -0.006917 222.860901
LUT_3D_SIZE 33
0.000000 0.000000 0.000000
0.303898 0.303898 0.303898
0.366762 0.366762 0.366762
0.401993 0.401993 0.401993
0.426588 0.426588 0.426588
0.445501 0.445501 0.445501
0.460872 0.460872 0.460872
0.473820 0.473820 0.473820
0.485005 0.485005 0.485005
0.494852 0.494852 0.494852
0.503646 0.503646 0.503646
0.511590 0.511590 0.511590
0.518836 0.518836 0.518836
0.525494 0.525494 0.525494
0.531655 0.531655 0.531655
0.537387 0.537387 0.537387
0.542745 0.542745 0.542745
0.547776 0.547776 0.547776
0.552517 0.552517 0.552517
0.557000 0.557000 0.557000
0.561252 0.561252 0.561252
0.565294 0.565294 0.565294
0.569148 0.569148 0.569148
0.572829 0.572829 0.572829
0.576353 0.576353 0.576353
0.579732 0.579732 0.579732
0.582978 0.582978 0.582978
0.586100 0.586100 0.586100
0.589109 0.589109 0.589109
0.592012 0.592012 0.592012
0.594815 0.594815 0.594815
0.597527 0.597527 0.597527
0.600152 0.600152 0.600152
0.602695 0.602695 0.602695
0.605163 0.605163 0.605163
0.607559 0.607559 0.607559
0.609887 0.609887 0.609887
0.612151 0.612151 0.612151
0.614355 0.614355 0.614355
0.616501 0.616501 0.616501
0.618592 0.618592 0.618592
0.620632 0.620632 0.620632
0.622622 0.622622 0.622622
0.624566 0.624566 0.624566
0.626464 0.626464 0.626464
0.628320 0.628320 0.628320
0.630135 0.630135 0.630135
0.631911 0.631911 0.631911
0.633649 0.633649 0.633649
0.635352 0.635352 0.635352
0.637020 0.637020 0.637020
0.638654 0.638654 0.638654
0.640257 0.640257 0.640257
0.641830 0.641830 0.641830
0.643372 0.643372 0.643372
0.644887 0.644887 0.644887
0.646374 0.646374 0.646374
0.647835 0.647835 0.647835
0.649270 0.649270 0.649270
0.650681 0.650681 0.650681
0.652068 0.652068 0.652068
0.653432 0.653432 0.653432
0.654774 0.654774 0.654774
0.656094 0.656094 0.656094
0.657393 0.657393 0.657393
0.658672 0.658672 0.658672
0.659932 0.659932 0.659932
0.661173 0.661173 0.661173
0.662395 0.662395 0.662395
0.663599 0.663599 0.663599
0.664786 0.664786 0.664786
0.665957 0.665957 0.665957
0.667110 0.667110 0.667110
0.668248 0.668248 0.668248
0.669370 0.669370 0.669370
0.670478 0.670478 0.670478
0.671570 0.671570 0.671570
0.672648 0.672648 0.672648
0.673713 0.673713 0.673713
0.674763 0.674763 0.674763
0.675801 0.675801 0.675801
0.676825 0.676825 0.676825
0.677837 0.677837 0.677837
0.678837 0.678837 0.678837
0.679825 0.679825 0.679825
0.680801 0.680801 0.680801
0.681765 0.681765 0.681765
0.682719 0.682719 0.682719
0.683661 0.683661 0.683661
0.684593 0.684593 0.684593
0.685514 0.685514 0.685514
0.686426 0.686426 0.686426
0.687327 0.687327 0.687327
0.688218 0.688218 0.688218
0.689100 0.689100 0.689100
0.689973 0.689973 0.689973
0.690836 0.690836 0.690836
0.691691 0.691691 0.691691
0.692536 0.692536 0.692536
0.693373 0.693373 0.693373
0.694202 0.694202 0.694202
0.695022 0.695022 0.695022
0.695835 0.695835 0.695835
0.696639 0.696639 0.696639
0.697436 0.697436 0.697436
0.698225 0.698225 0.698225
0.699006 0.699006 0.699006
0.699780 0.699780 0.699780
0.700547 0.700547 0.700547
0.701307 0.701307 0.701307
0.702060 0.702060 0.702060
0.702806 0.702806 0.702806
0.703545 0.703545 0.703545
0.704278 0.704278 0.704278
0.705004 0.705004 0.705004
0.705724 0.705724 0.705724
0.706438 0.706438 0.706438
0.707146 0.707146 0.707146
0.707847 0.707847 0.707847
0.708543 0.708543 0.708543
0.709233 0.709233 0.709233
0.709917 0.709917 0.709917
0.710595 0.710595 0.710595
0.711268 0.711268 0.711268
0.711936 0.711936 0.711936
0.712598 0.712598 0.712598
0.713255 0.713255 0.713255
0.713906 0.713906 0.713906
0.714553 0.714553 0.714553
0.715194 0.715194 0.715194
0.715831 0.715831 0.715831
0.716462 0.716462 0.716462
0.717089 0.717089 0.717089
0.717711 0.717711 0.717711
0.718329 0.718329 0.718329
0.718941 0.718941 0.718941
0.719550 0.719550 0.719550
0.720154 0.720154 0.720154
0.720753 0.720753 0.720753
0.721348 0.721348 0.721348
0.721939 0.721939 0.721939
0.722526 0.722526 0.722526
0.723108 0.723108 0.723108
0.723686 0.723686 0.723686
0.724261 0.724261 0.724261
0.724831 0.724831 0.724831
0.725398 0.725398 0.725398
0.725960 0.725960 0.725960
0.726519 0.726519 0.726519
0.727074 0.727074 0.727074
0.727625 0.727625 0.727625
0.728173 0.728173 0.728173
0.728717 0.728717 0.728717
0.729257 0.729257 0.729257
0.729794 0.729794 0.729794
0.730328 0.730328 0.730328
0.730857 0.730857 0.730857
0.731384 0.731384 0.731384
0.731907 0.731907 0.731907
0.732427 0.732427 0.732427
0.732944 0.732944 0.732944
0.733457 0.733457 0.733457
0.733968 0.733968 0.733968
0.734475 0.734475 0.734475
0.734979 0.734979 0.734979
0.735480 0.735480 0.735480
0.735978 0.735978 0.735978
0.736473 0.736473 0.736473
0.736965 0.736965 0.736965
0.737454 0.737454 0.737454
0.737940 0.737940 0.737940
0.738423 0.738423 0.738423
0.738904 0.738904 0.738904
0.739382 0.739382 0.739382
0.739857 0.739857 0.739857
0.740329 0.740329 0.740329
0.740798 0.740798 0.740798
0.741265 0.741265 0.741265
0.741729 0.741729 0.741729
0.742191 0.742191 0.742191
0.742650 0.742650 0.742650
0.743107 0.743107 0.743107
0.743561 0.743561 0.743561
0.744012 0.744012 0.744012
0.744461 0.744461 0.744461
0.744908 0.744908 0.744908
0.745352 0.745352 0.745352
0.745794 0.745794 0.745794
0.746233 0.746233 0.746233
0.746671 0.746671 0.746671
0.747105 0.747105 0.747105
0.747538 0.747538 0.747538
0.747968 0.747968 0.747968
0.748396 0.748396 0.748396
0.748822 0.748822 0.748822
0.749246 0.749246 0.749246
0.749667 0.749667 0.749667
0.750087 0.750087 0.750087
0.750504 0.750504 0.750504
0.750919 0.750919 0.750919
0.751332 0.751332 0.751332
0.751743 0.751743 0.751743
0.752152 0.752152 0.752152
0.752559 0.752559 0.752559
0.752964 0.752964 0.752964
0.753367 0.753367 0.753367
0.753768 0.753768 0.753768
0.754167 0.754167 0.754167
0.754564 0.754564 0.754564
0.754959 0.754959 0.754959
0.755352 0.755352 0.755352
0.755744 0.755744 0.755744
0.756133 0.756133 0.756133
0.756521 0.756521 0.756521
0.756907 0.756907 0.756907
0.757291 0.757291 0.757291
0.757673 0.757673 0.757673
0.758054 0.758054 0.758054
0.758433 0.758433 0.758433
0.758810 0.758810 0.758810
0.759185 0.759185 0.759185
0.759559 0.759559 0.759559
0.759931 0.759931 0.759931
0.760301 0.760301 0.760301
0.760670 0.760670 0.760670
0.761037 0.761037 0.761037
0.761402 0.761402 0.761402
0.761766 0.761766 0.761766
0.762128 0.762128 0.762128
0.762489 0.762489 0.762489
0.762848 0.762848 0.762848
0.763205 0.763205 0.763205
0.763561 0.763561 0.763561
0.763915 0.763915 0.763915
0.764268 0.764268 0.764268
0.764619 0.764619 0.764619
0.764969 0.764969 0.764969
0.765318 0.765318 0.765318
0.765665 0.765665 0.765665
0.766010 0.766010 0.766010
0.766354 0.766354 0.766354
0.766697 0.766697 0.766697
0.767038 0.767038 0.767038
0.767378 0.767378 0.767378
0.767716 0.767716 0.767716
0.768053 0.768053 0.768053
0.768389 0.768389 0.768389
0.768723 0.768723 0.768723
0.769056 0.769056 0.769056
0.769387 0.769387 0.769387
0.769717 0.769717 0.769717
0.770046 0.770046 0.770046
0.770374 0.770374 0.770374
0.770700 0.770700 0.770700
0.771025 0.771025 0.771025
0.771349 0.771349 0.771349
0.771671 0.771671 0.771671
0.771993 0.771993 0.771993
0.772312 0.772312 0.772312
0.772631 0.772631 0.772631
0.772949 0.772949 0.772949
0.773265 0.773265 0.773265
0.773580 0.773580 0.773580
0.773894 0.773894 0.773894
0.774206 0.774206 0.774206
0.774518 0.774518 0.774518
0.774828 0.774828 0.774828
0.775137 0.775137 0.775137
0.775445 0.775445 0.775445
0.775752 0.775752 0.775752
0.776058 0.776058 0.776058
0.776362 0.776362 0.776362
0.776666 0.776666 0.776666
0.776968 0.776968 0.776968
0.777269 0.777269 0.777269
0.777570 0.777570 0.777570
0.777869 0.777869 0.777869
0.778167 0.778167 0.778167
0.778463 0.778463 0.778463
0.778759 0.778759 0.778759
0.779054 0.779054 0.779054
0.779348 0.779348 0.779348
0.779640 0.779640 0.779640
0.779932 0.779932 0.779932
0.780223 0.780223 0.780223
0.780512 0.780512 0.780512
0.780801 0.780801 0.780801
0.781088 0.781088 0.781088
0.781375 0.781375 0.781375
0.781660 0.781660 0.781660
0.781945 0.781945 0.781945
0.782228 0.782228 0.782228
0.782511 0.782511 0.782511
0.782793 0.782793 0.782793
0.783073 0.783073 0.783073
0.783353 0.783353 0.783353
0.783632 0.783632 0.783632
0.783910 0.783910 0.783910
0.784187 0.784187 0.784187
0.784463 0.784463 0.784463
0.784738 0.784738 0.784738
0.785012 0.785012 0.785012
0.785285 0.785285 0.785285
0.785557 0.785557 0.785557
0.785829 0.785829 0.785829
0.786099 0.786099 0.786099
0.786369 0.786369 0.786369
0.786638 0.786638 0.786638
0.786906 0.786906 0.786906
0.787173 0.787173 0.787173
0.787439 0.787439 0.787439
0.787704 0.787704 0.787704
0.787969 0.787969 0.787969
0.788232 0.788232 0.788232
0.788495 0.788495 0.788495
0.788757 0.788757 0.788757
0.789018 0.789018 0.789018
0.789278 0.789278 0.789278
0.789538 0.789538 0.789538
0.789797 0.789797 0.789797
0.790054 0.790054 0.790054
0.790311 0.790311 0.790311
0.790568 0.790568 0.790568
0.790823 0.790823 0.790823
0.791078 0.791078 0.791078
0.791332 0.791332 0.791332
0.791585 0.791585 0.791585
0.791837 0.791837 0.791837
0.792088 0.792088 0.792088
0.792339 0.792339 0.792339
0.792589 0.792589 0.792589
0.792839 0.792839 0.792839
0.793087 0.793087 0.793087
0.793335 0.793335 0.793335
0.793582 0.793582 0.793582
0.793828 0.793828 0.793828
0.794074 0.794074 0.794074
0.794318 0.794318 0.794318
0.794562 0.794562 0.794562
0.794806 0.794806 0.794806
0.795048 0.795048 0.795048
0.795290 0.795290 0.795290
0.795532 0.795532 0.795532
0.795772 0.795772 0.795772
0.796012 0.796012 0.796012
0.796251 0.796251 0.796251
0.796489 0.796489 0.796489
0.796727 0.796727 0.796727
0.796964 0.796964 0.796964
0.797201 0.797201 0.797201
0.797436 0.797436 0.797436
0.797671 0.797671 0.797671
0.797906 0.797906 0.797906
0.798139 0.798139 0.798139
0.798372 0.798372 0.798372
0.798605 0.798605 0.798605
0.798837 0.798837 0.798837
0.799068 0.799068 0.799068
0.799298 0.799298 0.799298
0.799528 0.799528 0.799528
0.799757 0.799757 0.799757
0.799985 0.799985 0.799985
0.800213 0.800213 0.800213
0.800440 0.800440 0.800440
0.800667 0.800667 0.800667
0.800893 0.800893 0.800893
0.801118 0.801118 0.801118
0.801343 0.801343 0.801343
0.801567 0.801567 0.801567
0.801791 0.801791 0.801791
0.802014 0.802014 0.802014
0.802236 0.802236 0.802236
0.802458 0.802458 0.802458
0.802679 0.802679 0.802679
0.802900 0.802900 0.802900
0.803120 0.803120 0.803120
0.803339 0.803339 0.803339
0.803558 0.803558 0.803558
0.803776 0.803776 0.803776
0.803994 0.803994 0.803994
0.804211 0.804211 0.804211
0.804427 0.804427 0.804427
0.804643 0.804643 0.804643
0.804858 0.804858 0.804858
0.805073 0.805073 0.805073
0.805287 0.805287 0.805287
0.805501 0.805501 0.805501
0.805714 0.805714 0.805714
0.805927 0.805927 0.805927
0.806139 0.806139 0.806139
0.806350 0.806350 0.806350
0.806561 0.806561 0.806561
0.806772 0.806772 0.806772
0.806982 0.806982 0.806982
0.807191 0.807191 0.807191
0.807400 0.807400 0.807400
0.807608 0.807608 0.807608
0.807816 0.807816 0.807816
0.808023 0.808023 0.808023
0.808230 0.808230 0.808230
0.808436 0.808436 0.808436
0.808641 0.808641 0.808641
0.808847 0.808847 0.808847
0.809051 0.809051 0.809051
0.809255 0.809255 0.809255
0.809459 0.809459 0.809459
0.809662 0.809662 0.809662
0.809865 0.809865 0.809865
0.810067 0.810067 0.810067
0.810269 0.810269 0.810269
0.810470 0.810470 0.810470
0.810670 0.810670 0.810670
0.810871 0.810871 0.810871
0.811070 0.811070 0.811070
0.811269 0.811269 0.811269
0.811468 0.811468 0.811468
0.811666 0.811666 0.811666
0.811864 0.811864 0.811864
0.812061 0.812061 0.812061
0.812258 0.812258 0.812258
0.812455 0.812455 0.812455
0.812651 0.812651 0.812651
0.812846 0.812846 0.812846
0.813041 0.813041 0.813041
0.813235 0.813235 0.813235
0.813429 0.813429 0.813429
0.813623 0.813623 0.813623
0.813816 0.813816 0.813816
0.814009 0.814009 0.814009
0.814201 0.814201 0.814201
0.814393 0.814393 0.814393
0.814584 0.814584 0.814584
0.814775 0.814775 0.814775
0.814966 0.814966 0.814966
0.815156 0.815156 0.815156
0.815345 0.815345 0.815345
0.815534 0.815534 0.815534
0.815723 0.815723 0.815723
0.815911 0.815911 0.815911
0.816099 0.816099 0.816099
0.816287 0.816287 0.816287
0.816474 0.816474 0.816474
0.816660 0.816660 0.816660
0.816846 0.816846 0.816846
0.817032 0.817032 0.817032
0.817217 0.817217 0.817217
0.817402 0.817402 0.817402
0.817587 0.817587 0.817587
0.817771 0.817771 0.817771
0.817954 0.817954 0.817954
0.818138 0.818138 0.818138
0.818320 0.818320 0.818320
0.818503 0.818503 0.818503
0.818685 0.818685 0.818685
0.818867 0.818867 0.818867
0.819048 0.819048 0.819048
0.819229 0.819229 0.819229
0.819409 0.819409 0.819409
0.819589 0.819589 0.819589
0.819769 0.819769 0.819769
0.819948 0.819948 0.819948
0.820127 0.820127 0.820127
0.820305 0.820305 0.820305
0.820483 0.820483 0.820483
0.820661 0.820661 0.820661
0.820838 0.820838 0.820838
0.821015 0.821015 0.821015
0.821192 0.821192 0.821192
0.821368 0.821368 0.821368
0.821544 0.821544 0.821544
0.821719 0.821719 0.821719
0.821894 0.821894 0.821894
0.822069 0.822069 0.822069
0.822244 0.822244 0.822244
0.822417 0.822417 0.822417
0.822591 0.822591 0.822591
0.822764 0.822764 0.822764
0.822937 0.822937 0.822937
0.823110 0.823110 0.823110
0.823282 0.823282 0.823282
0.823454 0.823454 0.823454
0.823625 0.823625 0.823625
0.823796 0.823796 0.823796
0.823967 0.823967 0.823967
0.824137 0.824137 0.824137
0.824307 0.824307 0.824307
0.824477 0.824477 0.824477
0.824646 0.824646 0.824646
0.824815 0.824815 0.824815
0.824984 0.824984 0.824984
0.825152 0.825152 0.825152
0.825320 0.825320 0.825320
0.825487 0.825487 0.825487
0.825655 0.825655 0.825655
0.825822 0.825822 0.825822
0.825988 0.825988 0.825988
0.826154 0.826154 0.826154
0.826320 0.826320 0.826320
0.826486 0.826486 0.826486
0.826651 0.826651 0.826651
0.826816 0.826816 0.826816
0.826980 0.826980 0.826980
0.827145 0.827145 0.827145
0.827309 0.827309 0.827309
0.827472 0.827472 0.827472
0.827635 0.827635 0.827635
0.827798 0.827798 0.827798
0.827961 0.827961 0.827961
0.828123 0.828123 0.828123
0.828285 0.828285 0.828285
0.828447 0.828447 0.828447
0.828608 0.828608 0.828608
0.828769 0.828769 0.828769
0.828930 0.828930 0.828930
0.829090 0.829090 0.829090
0.829251 0.829251 0.829251
0.829410 0.829410 0.829410
0.829570 0.829570 0.829570
0.829729 0.829729 0.829729
0.829888 0.829888 0.829888
0.830046 0.830046 0.830046
0.830205 0.830205 0.830205
0.830363 0.830363 0.830363
0.830520 0.830520 0.830520
0.830678 0.830678 0.830678
0.830835 0.830835 0.830835
0.830991 0.830991 0.830991
0.831148 0.831148 0.831148
0.831304 0.831304 0.831304
0.831460 0.831460 0.831460
0.831615 0.831615 0.831615
0.831771 0.831771 0.831771
0.831926 0.831926 0.831926
0.832080 0.832080 0.832080
0.832235 0.832235 0.832235
0.832389 0.832389 0.832389
0.832542 0.832542 0.832542
0.832696 0.832696 0.832696
0.832849 0.832849 0.832849
0.833002 0.833002 0.833002
0.833155 0.833155 0.833155
0.833307 0.833307 0.833307
0.833459 0.833459 0.833459
0.833611 0.833611 0.833611
0.833763 0.833763 0.833763
0.833914 0.833914 0.833914
0.834065 0.834065 0.834065
0.834216 0.834216 0.834216
0.834366 0.834366 0.834366
0.834516 0.834516 0.834516
0.834666 0.834666 0.834666
0.834816 0.834816 0.834816
0.834965 0.834965 0.834965
0.835114 0.835114 0.835114
0.835263 0.835263 0.835263
0.835412 0.835412 0.835412
0.835560 0.835560 0.835560
0.835708 0.835708 0.835708
0.835856 0.835856 0.835856
0.836003 0.836003 0.836003
0.836150 0.836150 0.836150
0.836297 0.836297 0.836297
0.836444 0.836444 0.836444
0.836590 0.836590 0.836590
0.836737 0.836737 0.836737
0.836882 0.836882 0.836882
0.837028 0.837028 0.837028
0.837173 0.837173 0.837173
0.837319 0.837319 0.837319
0.837463 0.837463 0.837463
0.837608 0.837608 0.837608
0.837752 0.837752 0.837752
0.837897 0.837897 0.837897
0.838040 0.838040 0.838040
0.838184 0.838184 0.838184
0.838327 0.838327 0.838327
0.838471 0.838471 0.838471
0.838613 0.838613 0.838613
0.838756 0.838756 0.838756
0.838898 0.838898 0.838898
0.839041 0.839041 0.839041
0.839182 0.839182 0.839182
0.839324 0.839324 0.839324
0.839465 0.839465 0.839465
0.839607 0.839607 0.839607
0.839748 0.839748 0.839748
0.839888 0.839888 0.839888
0.840029 0.840029 0.840029
0.840169 0.840169 0.840169
0.840309 0.840309 0.840309
0.840448 0.840448 0.840448
0.840588 0.840588 0.840588
0.840727 0.840727 0.840727
0.840866 0.840866 0.840866
0.841005 0.841005 0.841005
0.841144 0.841144 0.841144
0.841282 0.841282 0.841282
0.841420 0.841420 0.841420
0.841558 0.841558 0.841558
0.841695 0.841695 0.841695
0.841833 0.841833 0.841833
0.841970 0.841970 0.841970
0.842107 0.842107 0.842107
0.842244 0.842244 0.842244
0.842380 0.842380 0.842380
0.842516 0.842516 0.842516
0.842652 0.842652 0.842652
0.842788 0.842788 0.842788
0.842924 0.842924 0.842924
0.843059 0.843059 0.843059
0.843194 0.843194 0.843194
0.843329 0.843329 0.843329
0.843464 0.843464 0.843464
0.843598 0.843598 0.843598
0.843732 0.843732 0.843732
0.843867 0.843867 0.843867
0.844000 0.844000 0.844000
0.844134 0.844134 0.844134
0.844267 0.844267 0.844267
0.844400 0.844400 0.844400
0.844533 0.844533 0.844533
0.844666 0.844666 0.844666
0.844799 0.844799 0.844799
0.844931 0.844931 0.844931
0.845063 0.845063 0.845063
0.845195 0.845195 0.845195
0.845327 0.845327 0.845327
0.845458 0.845458 0.845458
0.845589 0.845589 0.845589
0.845720 0.845720 0.845720
0.845851 0.845851 0.845851
0.845982 0.845982 0.845982
0.846112 0.846112 0.846112
0.846243 0.846243 0.846243
0.846373 0.846373 0.846373
0.846502 0.846502 0.846502
0.846632 0.846632 0.846632
0.846761 0.846761 0.846761
0.846891 0.846891 0.846891
0.847020 0.847020 0.847020
0.847148 0.847148 0.847148
0.847277 0.847277 0.847277
0.847405 0.847405 0.847405
0.847534 0.847534 0.847534
0.847661 0.847661 0.847661
0.847789 0.847789 0.847789
0.847917 0.847917 0.847917
0.848044 0.848044 0.848044
0.848171 0.848171 0.848171
0.848298 0.848298 0.848298
0.848425 0.848425 0.848425
0.848552 0.848552 0.848552
0.848678 0.848678 0.848678
0.848805 0.848805 0.848805
0.848931 0.848931 0.848931
0.849056 0.849056 0.849056
0.849182 0.849182 0.849182
0.849308 0.849308 0.849308
0.849433 0.849433 0.849433
0.849558 0.849558 0.849558
0.849683 0.849683 0.849683
0.849807 0.849807 0.849807
0.849932 0.849932 0.849932
0.850056 0.850056 0.850056
0.850180 0.850180 0.850180
0.850304 0.850304 0.850304
0.850428 0.850428 0.850428
0.850552 0.850552 0.850552
0.850675 0.850675 0.850675
0.850798 0.850798 0.850798
0.850921 0.850921 0.850921
0.851044 0.851044 0.851044
0.851167 0.851167 0.851167
0.851289 0.851289 0.851289
0.851412 0.851412 0.851412
0.851534 0.851534 0.851534
0.851656 0.851656 0.851656
0.851777 0.851777 0.851777
0.851899 0.851899 0.851899
0.852020 0.852020 0.852020
0.852141 0.852141 0.852141
0.852262 0.852262 0.852262
0.852383 0.852383 0.852383
0.852504 0.852504 0.852504
0.852625 0.852625 0.852625
0.852745 0.852745 0.852745
0.852865 0.852865 0.852865
0.852985 0.852985 0.852985
0.853105 0.853105 0.853105
0.853224 0.853224 0.853224
0.853344 0.853344 0.853344
0.853463 0.853463 0.853463
0.853582 0.853582 0.853582
0.853701 0.853701 0.853701
0.853820 0.853820 0.853820
0.853939 0.853939 0.853939
0.854057 0.854057 0.854057
0.854175 0.854175 0.854175
0.854293 0.854293 0.854293
0.854411 0.854411 0.854411
0.854529 0.854529 0.854529
0.854646 0.854646 0.854646
0.854764 0.854764 0.854764
0.854881 0.854881 0.854881
0.854998 0.854998 0.854998
0.855115 0.855115 0.855115
0.855232 0.855232 0.855232
0.855348 0.855348 0.855348
0.855465 0.855465 0.855465
0.855581 0.855581 0.855581
0.855697 0.855697 0.855697
0.855813 0.855813 0.855813
0.855929 0.855929 0.855929
0.856044 0.856044 0.856044
0.856160 0.856160 0.856160
0.856275 0.856275 0.856275
0.856390 0.856390 0.856390
0.856505 0.856505 0.856505
0.856620 0.856620 0.856620
0.856735 0.856735 0.856735
0.856849 0.856849 0.856849
0.856963 0.856963 0.856963
0.857078 0.857078 0.857078
0.857192 0.857192 0.857192
0.857305 0.857305 0.857305
0.857419 0.857419 0.857419
0.857533 0.857533 0.857533
0.857646 0.857646 0.857646
0.857759 0.857759 0.857759
0.857872 0.857872 0.857872
0.857985 0.857985 0.857985
0.858098 0.858098 0.858098
0.858210 0.858210 0.858210
0.858323 0.858323 0.858323
0.858435 0.858435 0.858435
0.858547 0.858547 0.858547
0.858659 0.858659 0.858659
0.858771 0.858771 0.858771
0.858883 0.858883 0.858883
0.858994 0.858994 0.858994
0.859106 0.859106 0.859106
0.859217 0.859217 0.859217
0.859328 0.859328 0.859328
0.859439 0.859439 0.859439
0.859550 0.859550 0.859550
0.859660 0.859660 0.859660
0.859771 0.859771 0.859771
0.859881 0.859881 0.859881
0.859991 0.859991 0.859991
0.860101 0.860101 0.860101
0.860211 0.860211 0.860211
0.860321 0.860321 0.860321
0.860430 0.860430 0.860430
0.860540 0.860540 0.860540
0.860649 0.860649 0.860649
0.860758 0.860758 0.860758
0.860867 0.860867 0.860867
0.860976 0.860976 0.860976
0.861085 0.861085 0.861085
0.861194 0.861194 0.861194
0.861302 0.861302 0.861302
0.861410 0.861410 0.861410
0.861518 0.861518 0.861518
0.861627 0.861627 0.861627
0.861734 0.861734 0.861734
0.861842 0.861842 0.861842
0.861950 0.861950 0.861950
0.862057 0.862057 0.862057
0.862164 0.862164 0.862164
0.862272 0.862272 0.862272
0.862379 0.862379 0.862379
0.862486 0.862486 0.862486
0.862592 0.862592 0.862592
0.862699 0.862699 0.862699
0.862805 0.862805 0.862805
0.862912 0.862912 0.862912
0.863018 0.863018 0.863018
0.863124 0.863124 0.863124
0.863230 0.863230 0.863230
0.863336 0.863336 0.863336
0.863441 0.863441 0.863441
0.863547 0.863547 0.863547
0.863652 0.863652 0.863652
0.863757 0.863757 0.863757
0.863863 0.863863 0.863863
0.863968 0.863968 0.863968
0.864072 0.864072 0.864072
0.864177 0.864177 0.864177
0.864282 0.864282 0.864282
0.864386 0.864386 0.864386
0.864491 0.864491 0.864491
0.864595 0.864595 0.864595
0.864699 0.864699 0.864699
0.864803 0.864803 0.864803
0.864906 0.864906 0.864906
0.865010 0.865010 0.865010
0.865114 0.865114 0.865114
0.865217 0.865217 0.865217
0.865320 0.865320 0.865320
0.865423 0.865423 0.865423
0.865526 0.865526 0.865526
0.865629 0.865629 0.865629
0.865732 0.865732 0.865732
0.865835 0.865835 0.865835
0.865937 0.865937 0.865937
0.866040 0.866040 0.866040
0.866142 0.866142 0.866142
0.866244 0.866244 0.866244
0.866346 0.866346 0.866346
0.866448 0.866448 0.866448
0.866550 0.866550 0.866550
0.866651 0.866651 0.866651
0.866753 0.866753 0.866753
0.866854 0.866854 0.866854
0.866955 0.866955 0.866955
0.867056 0.867056 0.867056
0.867157 0.867157 0.867157
0.867258 0.867258 0.867258
0.867359 0.867359 0.867359
0.867460 0.867460 0.867460
0.867560 0.867560 0.867560
0.867661 0.867661 0.867661
0.867761 0.867761 0.867761
0.867861 0.867861 0.867861
0.867961 0.867961 0.867961
0.868061 0.868061 0.868061
0.868161 0.868161 0.868161
0.868260 0.868260 0.868260
0.868360 0.868360 0.868360
0.868459 0.868459 0.868459
0.868558 0.868558 0.868558
0.868658 0.868658 0.868658
0.868757 0.868757 0.868757
0.868856 0.868856 0.868856
0.868954 0.868954 0.868954
0.869053 0.869053 0.869053
0.869152 0.869152 0.869152
0.869250 0.869250 0.869250
0.869348 0.869348 0.869348
0.869447 0.869447 0.869447
0.869545 0.869545 0.869545
0.869643 0.869643 0.869643
0.869741 0.869741 0.869741
0.869838 0.869838 0.869838
0.869936 0.869936 0.869936
0.870034 0.870034 0.870034
0.870131 0.870131 0.870131
0.870228 0.870228 0.870228
0.870325 0.870325 0.870325
0.870422 0.870422 0.870422
0.870519 0.870519 0.870519
0.870616 0.870616 0.870616
0.870713 0.870713 0.870713
0.870810 0.870810 0.870810
0.870906 0.870906 0.870906
0.871002 0.871002 0.871002
0.871099 0.871099 0.871099
0.871195 0.871195 0.871195
0.871291 0.871291 0.871291
0.871387 0.871387 0.871387
0.871483 0.871483 0.871483
0.871578 0.871578 0.871578
0.871674 0.871674 0.871674
0.871769 0.871769 0.871769
0.871865 0.871865 0.871865
0.871960 0.871960 0.871960
0.872055 0.872055 0.872055
0.872150 0.872150 0.872150
0.872245 0.872245 0.872245
0.872340 0.872340 0.872340
0.872435 0.872435 0.872435
0.872529 0.872529 0.872529
0.872624 0.872624 0.872624
0.872718 0.872718 0.872718
0.872813 0.872813 0.872813
0.872907 0.872907 0.872907
0.873001 0.873001 0.873001
0.873095 0.873095 0.873095
0.873189 0.873189 0.873189
0.873282 0.873282 0.873282
0.873376 0.873376 0.873376
0.873470 0.873470 0.873470
0.873563 0.873563 0.873563
0.873656 0.873656 0.873656
0.873750 0.873750 0.873750
0.873843 0.873843 0.873843
